(Exported by FreeCAD)
(Post Processor: marlin_post.py, version: 2020-11-03)
(Output Time:2023-07-12 21:00:48.968342)
(Begin preamble)
(Default Configuration)
G90
G21
G17
(Begin operation: G54)
G54
G0 Z8.175
(Begin operation: 5mm Endmill001)
(5mm Endmill001)
(Begin toolchange)
(M6 T1.0)
(Begin operation: Helix)
(Helix)
(helix cut operation)
G0 Z8.175
G0 Z8.175
G0 X20.750 Y12.000 Z8.175
G0 X20.750 Y12.000 Z3.175
G0 X21.688 Y12.000
G1 Z3.175
G3 X19.813 Y12.000 Z3.053 I-0.938 J0.000
G3 X21.688 Y12.000 Z2.931 I0.938 J0.000
G3 X19.813 Y12.000 Z2.809 I-0.938 J0.000
G3 X21.688 Y12.000 Z2.687 I0.938 J0.000
G3 X19.813 Y12.000 Z2.564 I-0.938 J0.000
G3 X21.688 Y12.000 Z2.442 I0.938 J0.000
G3 X19.813 Y12.000 Z2.320 I-0.938 J0.000
G3 X21.688 Y12.000 Z2.198 I0.938 J0.000
G3 X19.813 Y12.000 Z2.076 I-0.938 J0.000
G3 X21.688 Y12.000 Z1.954 I0.938 J0.000
G3 X19.813 Y12.000 Z1.832 I-0.938 J0.000
G3 X21.688 Y12.000 Z1.710 I0.938 J0.000
G3 X19.813 Y12.000 Z1.588 I-0.938 J0.000
G3 X21.688 Y12.000 Z1.465 I0.938 J0.000
G3 X19.813 Y12.000 Z1.343 I-0.938 J0.000
G3 X21.688 Y12.000 Z1.221 I0.938 J0.000
G3 X19.813 Y12.000 Z1.099 I-0.938 J0.000
G3 X21.688 Y12.000 Z0.977 I0.938 J0.000
G3 X19.813 Y12.000 Z0.855 I-0.938 J0.000
G3 X21.688 Y12.000 Z0.733 I0.938 J0.000
G3 X19.813 Y12.000 Z0.611 I-0.938 J0.000
G3 X21.688 Y12.000 Z0.488 I0.938 J0.000
G3 X19.813 Y12.000 Z0.366 I-0.938 J0.000
G3 X21.688 Y12.000 Z0.244 I0.938 J0.000
G3 X19.813 Y12.000 Z0.122 I-0.938 J0.000
G3 X21.688 Y12.000 Z0.000 I0.938 J0.000
G3 X19.813 Y12.000 Z0.000 I-0.938 J0.000
G3 X21.688 Y12.000 Z0.000 I0.938 J0.000
G0 X20.750 Y12.000 Z0.000
G0 Z3.175
G0 Z8.175
G0 X20.750 Y44.000 Z8.175
G0 X20.750 Y44.000 Z3.175
G0 X21.688 Y44.000
G1 Z3.175
G3 X19.813 Y44.000 Z3.053 I-0.938 J0.000
G3 X21.688 Y44.000 Z2.931 I0.938 J0.000
G3 X19.813 Y44.000 Z2.809 I-0.938 J0.000
G3 X21.688 Y44.000 Z2.687 I0.938 J0.000
G3 X19.813 Y44.000 Z2.564 I-0.938 J0.000
G3 X21.688 Y44.000 Z2.442 I0.938 J0.000
G3 X19.813 Y44.000 Z2.320 I-0.938 J0.000
G3 X21.688 Y44.000 Z2.198 I0.938 J0.000
G3 X19.813 Y44.000 Z2.076 I-0.938 J0.000
G3 X21.688 Y44.000 Z1.954 I0.938 J0.000
G3 X19.813 Y44.000 Z1.832 I-0.938 J0.000
G3 X21.688 Y44.000 Z1.710 I0.938 J0.000
G3 X19.813 Y44.000 Z1.588 I-0.938 J0.000
G3 X21.688 Y44.000 Z1.465 I0.938 J0.000
G3 X19.813 Y44.000 Z1.343 I-0.938 J0.000
G3 X21.688 Y44.000 Z1.221 I0.938 J0.000
G3 X19.813 Y44.000 Z1.099 I-0.938 J0.000
G3 X21.688 Y44.000 Z0.977 I0.938 J0.000
G3 X19.813 Y44.000 Z0.855 I-0.938 J0.000
G3 X21.688 Y44.000 Z0.733 I0.938 J0.000
G3 X19.813 Y44.000 Z0.611 I-0.938 J0.000
G3 X21.688 Y44.000 Z0.488 I0.938 J0.000
G3 X19.813 Y44.000 Z0.366 I-0.938 J0.000
G3 X21.688 Y44.000 Z0.244 I0.938 J0.000
G3 X19.813 Y44.000 Z0.122 I-0.938 J0.000
G3 X21.688 Y44.000 Z0.000 I0.938 J0.000
G3 X19.813 Y44.000 Z0.000 I-0.938 J0.000
G3 X21.688 Y44.000 Z0.000 I0.938 J0.000
G0 X20.750 Y44.000 Z0.000
G0 Z3.175
G0 Z8.175
G0 X56.750 Y44.000 Z8.175
G0 X56.750 Y44.000 Z3.175
G0 X57.688 Y44.000
G1 Z3.175
G3 X55.813 Y44.000 Z3.053 I-0.938 J0.000
G3 X57.688 Y44.000 Z2.931 I0.938 J0.000
G3 X55.813 Y44.000 Z2.809 I-0.938 J0.000
G3 X57.688 Y44.000 Z2.687 I0.938 J0.000
G3 X55.813 Y44.000 Z2.564 I-0.938 J0.000
G3 X57.688 Y44.000 Z2.442 I0.938 J0.000
G3 X55.813 Y44.000 Z2.320 I-0.938 J0.000
G3 X57.688 Y44.000 Z2.198 I0.938 J0.000
G3 X55.813 Y44.000 Z2.076 I-0.938 J0.000
G3 X57.688 Y44.000 Z1.954 I0.938 J0.000
G3 X55.813 Y44.000 Z1.832 I-0.938 J0.000
G3 X57.688 Y44.000 Z1.710 I0.938 J0.000
G3 X55.813 Y44.000 Z1.588 I-0.938 J0.000
G3 X57.688 Y44.000 Z1.465 I0.938 J0.000
G3 X55.813 Y44.000 Z1.343 I-0.938 J0.000
G3 X57.688 Y44.000 Z1.221 I0.938 J0.000
G3 X55.813 Y44.000 Z1.099 I-0.938 J0.000
G3 X57.688 Y44.000 Z0.977 I0.938 J0.000
G3 X55.813 Y44.000 Z0.855 I-0.938 J0.000
G3 X57.688 Y44.000 Z0.733 I0.938 J0.000
G3 X55.813 Y44.000 Z0.611 I-0.938 J0.000
G3 X57.688 Y44.000 Z0.488 I0.938 J0.000
G3 X55.813 Y44.000 Z0.366 I-0.938 J0.000
G3 X57.688 Y44.000 Z0.244 I0.938 J0.000
G3 X55.813 Y44.000 Z0.122 I-0.938 J0.000
G3 X57.688 Y44.000 Z0.000 I0.938 J0.000
G3 X55.813 Y44.000 Z0.000 I-0.938 J0.000
G3 X57.688 Y44.000 Z0.000 I0.938 J0.000
G0 X56.750 Y44.000 Z0.000
G0 Z3.175
G0 Z8.175
G0 X56.750 Y12.000 Z8.175
G0 X56.750 Y12.000 Z3.175
G0 X57.688 Y12.000
G1 Z3.175
G3 X55.813 Y12.000 Z3.053 I-0.938 J0.000
G3 X57.688 Y12.000 Z2.931 I0.938 J0.000
G3 X55.813 Y12.000 Z2.809 I-0.938 J0.000
G3 X57.688 Y12.000 Z2.687 I0.938 J0.000
G3 X55.813 Y12.000 Z2.564 I-0.938 J0.000
G3 X57.688 Y12.000 Z2.442 I0.938 J0.000
G3 X55.813 Y12.000 Z2.320 I-0.938 J0.000
G3 X57.688 Y12.000 Z2.198 I0.938 J0.000
G3 X55.813 Y12.000 Z2.076 I-0.938 J0.000
G3 X57.688 Y12.000 Z1.954 I0.938 J0.000
G3 X55.813 Y12.000 Z1.832 I-0.938 J0.000
G3 X57.688 Y12.000 Z1.710 I0.938 J0.000
G3 X55.813 Y12.000 Z1.588 I-0.938 J0.000
G3 X57.688 Y12.000 Z1.465 I0.938 J0.000
G3 X55.813 Y12.000 Z1.343 I-0.938 J0.000
G3 X57.688 Y12.000 Z1.221 I0.938 J0.000
G3 X55.813 Y12.000 Z1.099 I-0.938 J0.000
G3 X57.688 Y12.000 Z0.977 I0.938 J0.000
G3 X55.813 Y12.000 Z0.855 I-0.938 J0.000
G3 X57.688 Y12.000 Z0.733 I0.938 J0.000
G3 X55.813 Y12.000 Z0.611 I-0.938 J0.000
G3 X57.688 Y12.000 Z0.488 I0.938 J0.000
G3 X55.813 Y12.000 Z0.366 I-0.938 J0.000
G3 X57.688 Y12.000 Z0.244 I0.938 J0.000
G3 X55.813 Y12.000 Z0.122 I-0.938 J0.000
G3 X57.688 Y12.000 Z0.000 I0.938 J0.000
G3 X55.813 Y12.000 Z0.000 I-0.938 J0.000
G3 X57.688 Y12.000 Z0.000 I0.938 J0.000
G0 X56.750 Y12.000 Z0.000
G0 Z3.175
G0 Z8.175
G0 X99.250 Y12.000 Z8.175
G0 X99.250 Y12.000 Z3.175
G0 X100.188 Y12.000
G1 Z3.175
G3 X98.313 Y12.000 Z3.053 I-0.938 J0.000
G3 X100.188 Y12.000 Z2.931 I0.938 J0.000
G3 X98.313 Y12.000 Z2.809 I-0.938 J0.000
G3 X100.188 Y12.000 Z2.687 I0.938 J0.000
G3 X98.313 Y12.000 Z2.564 I-0.938 J0.000
G3 X100.188 Y12.000 Z2.442 I0.938 J0.000
G3 X98.313 Y12.000 Z2.320 I-0.938 J0.000
G3 X100.188 Y12.000 Z2.198 I0.938 J0.000
G3 X98.313 Y12.000 Z2.076 I-0.938 J0.000
G3 X100.188 Y12.000 Z1.954 I0.938 J0.000
G3 X98.313 Y12.000 Z1.832 I-0.938 J0.000
G3 X100.188 Y12.000 Z1.710 I0.938 J0.000
G3 X98.313 Y12.000 Z1.588 I-0.938 J0.000
G3 X100.188 Y12.000 Z1.465 I0.938 J0.000
G3 X98.313 Y12.000 Z1.343 I-0.938 J0.000
G3 X100.188 Y12.000 Z1.221 I0.938 J0.000
G3 X98.313 Y12.000 Z1.099 I-0.938 J0.000
G3 X100.188 Y12.000 Z0.977 I0.938 J0.000
G3 X98.313 Y12.000 Z0.855 I-0.938 J0.000
G3 X100.188 Y12.000 Z0.733 I0.938 J0.000
G3 X98.313 Y12.000 Z0.611 I-0.938 J0.000
G3 X100.188 Y12.000 Z0.488 I0.938 J0.000
G3 X98.313 Y12.000 Z0.366 I-0.938 J0.000
G3 X100.188 Y12.000 Z0.244 I0.938 J0.000
G3 X98.313 Y12.000 Z0.122 I-0.938 J0.000
G3 X100.188 Y12.000 Z0.000 I0.938 J0.000
G3 X98.313 Y12.000 Z0.000 I-0.938 J0.000
G3 X100.188 Y12.000 Z0.000 I0.938 J0.000
G0 X99.250 Y12.000 Z0.000
G0 Z3.175
G0 Z8.175
G0 X99.250 Y44.000 Z8.175
G0 X99.250 Y44.000 Z3.175
G0 X100.188 Y44.000
G1 Z3.175
G3 X98.313 Y44.000 Z3.053 I-0.938 J0.000
G3 X100.188 Y44.000 Z2.931 I0.938 J0.000
G3 X98.313 Y44.000 Z2.809 I-0.938 J0.000
G3 X100.188 Y44.000 Z2.687 I0.938 J0.000
G3 X98.313 Y44.000 Z2.564 I-0.938 J0.000
G3 X100.188 Y44.000 Z2.442 I0.938 J0.000
G3 X98.313 Y44.000 Z2.320 I-0.938 J0.000
G3 X100.188 Y44.000 Z2.198 I0.938 J0.000
G3 X98.313 Y44.000 Z2.076 I-0.938 J0.000
G3 X100.188 Y44.000 Z1.954 I0.938 J0.000
G3 X98.313 Y44.000 Z1.832 I-0.938 J0.000
G3 X100.188 Y44.000 Z1.710 I0.938 J0.000
G3 X98.313 Y44.000 Z1.588 I-0.938 J0.000
G3 X100.188 Y44.000 Z1.465 I0.938 J0.000
G3 X98.313 Y44.000 Z1.343 I-0.938 J0.000
G3 X100.188 Y44.000 Z1.221 I0.938 J0.000
G3 X98.313 Y44.000 Z1.099 I-0.938 J0.000
G3 X100.188 Y44.000 Z0.977 I0.938 J0.000
G3 X98.313 Y44.000 Z0.855 I-0.938 J0.000
G3 X100.188 Y44.000 Z0.733 I0.938 J0.000
G3 X98.313 Y44.000 Z0.611 I-0.938 J0.000
G3 X100.188 Y44.000 Z0.488 I0.938 J0.000
G3 X98.313 Y44.000 Z0.366 I-0.938 J0.000
G3 X100.188 Y44.000 Z0.244 I0.938 J0.000
G3 X98.313 Y44.000 Z0.122 I-0.938 J0.000
G3 X100.188 Y44.000 Z0.000 I0.938 J0.000
G3 X98.313 Y44.000 Z0.000 I-0.938 J0.000
G3 X100.188 Y44.000 Z0.000 I0.938 J0.000
G0 X99.250 Y44.000 Z0.000
G0 Z3.175
G0 Z8.175
G0 X94.224 Y58.224 Z8.175
G0 X94.224 Y58.224 Z3.175
G0 X95.162 Y58.224
G1 Z3.175
G3 X93.287 Y58.224 Z3.053 I-0.938 J0.000
G3 X95.162 Y58.224 Z2.931 I0.938 J0.000
G3 X93.287 Y58.224 Z2.809 I-0.938 J0.000
G3 X95.162 Y58.224 Z2.687 I0.938 J0.000
G3 X93.287 Y58.224 Z2.564 I-0.938 J0.000
G3 X95.162 Y58.224 Z2.442 I0.938 J0.000
G3 X93.287 Y58.224 Z2.320 I-0.938 J0.000
G3 X95.162 Y58.224 Z2.198 I0.938 J0.000
G3 X93.287 Y58.224 Z2.076 I-0.938 J0.000
G3 X95.162 Y58.224 Z1.954 I0.938 J0.000
G3 X93.287 Y58.224 Z1.832 I-0.938 J0.000
G3 X95.162 Y58.224 Z1.710 I0.938 J0.000
G3 X93.287 Y58.224 Z1.588 I-0.938 J0.000
G3 X95.162 Y58.224 Z1.465 I0.938 J0.000
G3 X93.287 Y58.224 Z1.343 I-0.938 J0.000
G3 X95.162 Y58.224 Z1.221 I0.938 J0.000
G3 X93.287 Y58.224 Z1.099 I-0.938 J0.000
G3 X95.162 Y58.224 Z0.977 I0.938 J0.000
G3 X93.287 Y58.224 Z0.855 I-0.938 J0.000
G3 X95.162 Y58.224 Z0.733 I0.938 J0.000
G3 X93.287 Y58.224 Z0.611 I-0.938 J0.000
G3 X95.162 Y58.224 Z0.488 I0.938 J0.000
G3 X93.287 Y58.224 Z0.366 I-0.938 J0.000
G3 X95.162 Y58.224 Z0.244 I0.938 J0.000
G3 X93.287 Y58.224 Z0.122 I-0.938 J0.000
G3 X95.162 Y58.224 Z0.000 I0.938 J0.000
G3 X93.287 Y58.224 Z0.000 I-0.938 J0.000
G3 X95.162 Y58.224 Z0.000 I0.938 J0.000
G0 X94.224 Y58.224 Z0.000
G0 Z3.175
G0 Z8.175
G0 X118.224 Y58.224 Z8.175
G0 X118.224 Y58.224 Z3.175
G0 X119.162 Y58.224
G1 Z3.175
G3 X117.287 Y58.224 Z3.053 I-0.938 J0.000
G3 X119.162 Y58.224 Z2.931 I0.938 J0.000
G3 X117.287 Y58.224 Z2.809 I-0.938 J0.000
G3 X119.162 Y58.224 Z2.687 I0.938 J0.000
G3 X117.287 Y58.224 Z2.564 I-0.938 J0.000
G3 X119.162 Y58.224 Z2.442 I0.938 J0.000
G3 X117.287 Y58.224 Z2.320 I-0.938 J0.000
G3 X119.162 Y58.224 Z2.198 I0.938 J0.000
G3 X117.287 Y58.224 Z2.076 I-0.938 J0.000
G3 X119.162 Y58.224 Z1.954 I0.938 J0.000
G3 X117.287 Y58.224 Z1.832 I-0.938 J0.000
G3 X119.162 Y58.224 Z1.710 I0.938 J0.000
G3 X117.287 Y58.224 Z1.588 I-0.938 J0.000
G3 X119.162 Y58.224 Z1.465 I0.938 J0.000
G3 X117.287 Y58.224 Z1.343 I-0.938 J0.000
G3 X119.162 Y58.224 Z1.221 I0.938 J0.000
G3 X117.287 Y58.224 Z1.099 I-0.938 J0.000
G3 X119.162 Y58.224 Z0.977 I0.938 J0.000
G3 X117.287 Y58.224 Z0.855 I-0.938 J0.000
G3 X119.162 Y58.224 Z0.733 I0.938 J0.000
G3 X117.287 Y58.224 Z0.611 I-0.938 J0.000
G3 X119.162 Y58.224 Z0.488 I0.938 J0.000
G3 X117.287 Y58.224 Z0.366 I-0.938 J0.000
G3 X119.162 Y58.224 Z0.244 I0.938 J0.000
G3 X117.287 Y58.224 Z0.122 I-0.938 J0.000
G3 X119.162 Y58.224 Z0.000 I0.938 J0.000
G3 X117.287 Y58.224 Z0.000 I-0.938 J0.000
G3 X119.162 Y58.224 Z0.000 I0.938 J0.000
G0 X118.224 Y58.224 Z0.000
G0 Z3.175
G0 Z8.175
G0 X135.250 Y44.000 Z8.175
G0 X135.250 Y44.000 Z3.175
G0 X136.188 Y44.000
G1 Z3.175
G3 X134.313 Y44.000 Z3.053 I-0.938 J0.000
G3 X136.188 Y44.000 Z2.931 I0.938 J0.000
G3 X134.313 Y44.000 Z2.809 I-0.938 J0.000
G3 X136.188 Y44.000 Z2.687 I0.938 J0.000
G3 X134.313 Y44.000 Z2.564 I-0.938 J0.000
G3 X136.188 Y44.000 Z2.442 I0.938 J0.000
G3 X134.313 Y44.000 Z2.320 I-0.938 J0.000
G3 X136.188 Y44.000 Z2.198 I0.938 J0.000
G3 X134.313 Y44.000 Z2.076 I-0.938 J0.000
G3 X136.188 Y44.000 Z1.954 I0.938 J0.000
G3 X134.313 Y44.000 Z1.832 I-0.938 J0.000
G3 X136.188 Y44.000 Z1.710 I0.938 J0.000
G3 X134.313 Y44.000 Z1.588 I-0.938 J0.000
G3 X136.188 Y44.000 Z1.465 I0.938 J0.000
G3 X134.313 Y44.000 Z1.343 I-0.938 J0.000
G3 X136.188 Y44.000 Z1.221 I0.938 J0.000
G3 X134.313 Y44.000 Z1.099 I-0.938 J0.000
G3 X136.188 Y44.000 Z0.977 I0.938 J0.000
G3 X134.313 Y44.000 Z0.855 I-0.938 J0.000
G3 X136.188 Y44.000 Z0.733 I0.938 J0.000
G3 X134.313 Y44.000 Z0.611 I-0.938 J0.000
G3 X136.188 Y44.000 Z0.488 I0.938 J0.000
G3 X134.313 Y44.000 Z0.366 I-0.938 J0.000
G3 X136.188 Y44.000 Z0.244 I0.938 J0.000
G3 X134.313 Y44.000 Z0.122 I-0.938 J0.000
G3 X136.188 Y44.000 Z0.000 I0.938 J0.000
G3 X134.313 Y44.000 Z0.000 I-0.938 J0.000
G3 X136.188 Y44.000 Z0.000 I0.938 J0.000
G0 X135.250 Y44.000 Z0.000
G0 Z3.175
G0 Z8.175
G0 X135.250 Y12.000 Z8.175
G0 X135.250 Y12.000 Z3.175
G0 X136.188 Y12.000
G1 Z3.175
G3 X134.313 Y12.000 Z3.053 I-0.938 J0.000
G3 X136.188 Y12.000 Z2.931 I0.938 J0.000
G3 X134.313 Y12.000 Z2.809 I-0.938 J0.000
G3 X136.188 Y12.000 Z2.687 I0.938 J0.000
G3 X134.313 Y12.000 Z2.564 I-0.938 J0.000
G3 X136.188 Y12.000 Z2.442 I0.938 J0.000
G3 X134.313 Y12.000 Z2.320 I-0.938 J0.000
G3 X136.188 Y12.000 Z2.198 I0.938 J0.000
G3 X134.313 Y12.000 Z2.076 I-0.938 J0.000
G3 X136.188 Y12.000 Z1.954 I0.938 J0.000
G3 X134.313 Y12.000 Z1.832 I-0.938 J0.000
G3 X136.188 Y12.000 Z1.710 I0.938 J0.000
G3 X134.313 Y12.000 Z1.588 I-0.938 J0.000
G3 X136.188 Y12.000 Z1.465 I0.938 J0.000
G3 X134.313 Y12.000 Z1.343 I-0.938 J0.000
G3 X136.188 Y12.000 Z1.221 I0.938 J0.000
G3 X134.313 Y12.000 Z1.099 I-0.938 J0.000
G3 X136.188 Y12.000 Z0.977 I0.938 J0.000
G3 X134.313 Y12.000 Z0.855 I-0.938 J0.000
G3 X136.188 Y12.000 Z0.733 I0.938 J0.000
G3 X134.313 Y12.000 Z0.611 I-0.938 J0.000
G3 X136.188 Y12.000 Z0.488 I0.938 J0.000
G3 X134.313 Y12.000 Z0.366 I-0.938 J0.000
G3 X136.188 Y12.000 Z0.244 I0.938 J0.000
G3 X134.313 Y12.000 Z0.122 I-0.938 J0.000
G3 X136.188 Y12.000 Z0.000 I0.938 J0.000
G3 X134.313 Y12.000 Z0.000 I-0.938 J0.000
G3 X136.188 Y12.000 Z0.000 I0.938 J0.000
G0 X135.250 Y12.000 Z0.000
G0 Z3.175
G0 Z8.175
G0 X118.224 Y98.224 Z8.175
G0 X118.224 Y98.224 Z3.175
G0 X119.162 Y98.224
G1 Z3.175
G3 X117.287 Y98.224 Z3.053 I-0.938 J0.000
G3 X119.162 Y98.224 Z2.931 I0.938 J0.000
G3 X117.287 Y98.224 Z2.809 I-0.938 J0.000
G3 X119.162 Y98.224 Z2.687 I0.938 J0.000
G3 X117.287 Y98.224 Z2.564 I-0.938 J0.000
G3 X119.162 Y98.224 Z2.442 I0.938 J0.000
G3 X117.287 Y98.224 Z2.320 I-0.938 J0.000
G3 X119.162 Y98.224 Z2.198 I0.938 J0.000
G3 X117.287 Y98.224 Z2.076 I-0.938 J0.000
G3 X119.162 Y98.224 Z1.954 I0.938 J0.000
G3 X117.287 Y98.224 Z1.832 I-0.938 J0.000
G3 X119.162 Y98.224 Z1.710 I0.938 J0.000
G3 X117.287 Y98.224 Z1.588 I-0.938 J0.000
G3 X119.162 Y98.224 Z1.465 I0.938 J0.000
G3 X117.287 Y98.224 Z1.343 I-0.938 J0.000
G3 X119.162 Y98.224 Z1.221 I0.938 J0.000
G3 X117.287 Y98.224 Z1.099 I-0.938 J0.000
G3 X119.162 Y98.224 Z0.977 I0.938 J0.000
G3 X117.287 Y98.224 Z0.855 I-0.938 J0.000
G3 X119.162 Y98.224 Z0.733 I0.938 J0.000
G3 X117.287 Y98.224 Z0.611 I-0.938 J0.000
G3 X119.162 Y98.224 Z0.488 I0.938 J0.000
G3 X117.287 Y98.224 Z0.366 I-0.938 J0.000
G3 X119.162 Y98.224 Z0.244 I0.938 J0.000
G3 X117.287 Y98.224 Z0.122 I-0.938 J0.000
G3 X119.162 Y98.224 Z0.000 I0.938 J0.000
G3 X117.287 Y98.224 Z0.000 I-0.938 J0.000
G3 X119.162 Y98.224 Z0.000 I0.938 J0.000
G0 X118.224 Y98.224 Z0.000
G0 Z3.175
G0 Z8.175
G0 X94.224 Y98.224 Z8.175
G0 X94.224 Y98.224 Z3.175
G0 X95.162 Y98.224
G1 Z3.175
G3 X93.287 Y98.224 Z3.053 I-0.938 J0.000
G3 X95.162 Y98.224 Z2.931 I0.938 J0.000
G3 X93.287 Y98.224 Z2.809 I-0.938 J0.000
G3 X95.162 Y98.224 Z2.687 I0.938 J0.000
G3 X93.287 Y98.224 Z2.564 I-0.938 J0.000
G3 X95.162 Y98.224 Z2.442 I0.938 J0.000
G3 X93.287 Y98.224 Z2.320 I-0.938 J0.000
G3 X95.162 Y98.224 Z2.198 I0.938 J0.000
G3 X93.287 Y98.224 Z2.076 I-0.938 J0.000
G3 X95.162 Y98.224 Z1.954 I0.938 J0.000
G3 X93.287 Y98.224 Z1.832 I-0.938 J0.000
G3 X95.162 Y98.224 Z1.710 I0.938 J0.000
G3 X93.287 Y98.224 Z1.588 I-0.938 J0.000
G3 X95.162 Y98.224 Z1.465 I0.938 J0.000
G3 X93.287 Y98.224 Z1.343 I-0.938 J0.000
G3 X95.162 Y98.224 Z1.221 I0.938 J0.000
G3 X93.287 Y98.224 Z1.099 I-0.938 J0.000
G3 X95.162 Y98.224 Z0.977 I0.938 J0.000
G3 X93.287 Y98.224 Z0.855 I-0.938 J0.000
G3 X95.162 Y98.224 Z0.733 I0.938 J0.000
G3 X93.287 Y98.224 Z0.611 I-0.938 J0.000
G3 X95.162 Y98.224 Z0.488 I0.938 J0.000
G3 X93.287 Y98.224 Z0.366 I-0.938 J0.000
G3 X95.162 Y98.224 Z0.244 I0.938 J0.000
G3 X93.287 Y98.224 Z0.122 I-0.938 J0.000
G3 X95.162 Y98.224 Z0.000 I0.938 J0.000
G3 X93.287 Y98.224 Z0.000 I-0.938 J0.000
G3 X95.162 Y98.224 Z0.000 I0.938 J0.000
G0 X94.224 Y98.224 Z0.000
G0 Z3.175
G0 Z8.175
G0 X135.300 Y194.450 Z8.175
G0 X135.300 Y194.450 Z3.175
G0 X136.488 Y194.450
G1 Z3.175
G3 X134.113 Y194.450 Z3.053 I-1.188 J0.000
G3 X136.488 Y194.450 Z2.931 I1.188 J0.000
G3 X134.113 Y194.450 Z2.809 I-1.188 J0.000
G3 X136.488 Y194.450 Z2.687 I1.188 J0.000
G3 X134.113 Y194.450 Z2.564 I-1.188 J0.000
G3 X136.488 Y194.450 Z2.442 I1.188 J0.000
G3 X134.113 Y194.450 Z2.320 I-1.188 J0.000
G3 X136.488 Y194.450 Z2.198 I1.188 J0.000
G3 X134.113 Y194.450 Z2.076 I-1.188 J0.000
G3 X136.488 Y194.450 Z1.954 I1.188 J0.000
G3 X134.113 Y194.450 Z1.832 I-1.188 J0.000
G3 X136.488 Y194.450 Z1.710 I1.188 J0.000
G3 X134.113 Y194.450 Z1.588 I-1.188 J0.000
G3 X136.488 Y194.450 Z1.465 I1.188 J0.000
G3 X134.113 Y194.450 Z1.343 I-1.188 J0.000
G3 X136.488 Y194.450 Z1.221 I1.188 J0.000
G3 X134.113 Y194.450 Z1.099 I-1.188 J0.000
G3 X136.488 Y194.450 Z0.977 I1.188 J0.000
G3 X134.113 Y194.450 Z0.855 I-1.188 J0.000
G3 X136.488 Y194.450 Z0.733 I1.188 J0.000
G3 X134.113 Y194.450 Z0.611 I-1.188 J0.000
G3 X136.488 Y194.450 Z0.488 I1.188 J0.000
G3 X134.113 Y194.450 Z0.366 I-1.188 J0.000
G3 X136.488 Y194.450 Z0.244 I1.188 J0.000
G3 X134.113 Y194.450 Z0.122 I-1.188 J0.000
G3 X136.488 Y194.450 Z0.000 I1.188 J0.000
G3 X134.113 Y194.450 Z0.000 I-1.188 J0.000
G3 X136.488 Y194.450 Z0.000 I1.188 J0.000
G0 X135.300 Y194.450 Z0.000
G0 Z3.175
G0 Z8.175
G0 X135.300 Y241.450 Z8.175
G0 X135.300 Y241.450 Z3.175
G0 X136.488 Y241.450
G1 Z3.175
G3 X134.113 Y241.450 Z3.053 I-1.188 J0.000
G3 X136.488 Y241.450 Z2.931 I1.188 J0.000
G3 X134.113 Y241.450 Z2.809 I-1.188 J0.000
G3 X136.488 Y241.450 Z2.687 I1.188 J0.000
G3 X134.113 Y241.450 Z2.564 I-1.188 J0.000
G3 X136.488 Y241.450 Z2.442 I1.188 J0.000
G3 X134.113 Y241.450 Z2.320 I-1.188 J0.000
G3 X136.488 Y241.450 Z2.198 I1.188 J0.000
G3 X134.113 Y241.450 Z2.076 I-1.188 J0.000
G3 X136.488 Y241.450 Z1.954 I1.188 J0.000
G3 X134.113 Y241.450 Z1.832 I-1.188 J0.000
G3 X136.488 Y241.450 Z1.710 I1.188 J0.000
G3 X134.113 Y241.450 Z1.588 I-1.188 J0.000
G3 X136.488 Y241.450 Z1.465 I1.188 J0.000
G3 X134.113 Y241.450 Z1.343 I-1.188 J0.000
G3 X136.488 Y241.450 Z1.221 I1.188 J0.000
G3 X134.113 Y241.450 Z1.099 I-1.188 J0.000
G3 X136.488 Y241.450 Z0.977 I1.188 J0.000
G3 X134.113 Y241.450 Z0.855 I-1.188 J0.000
G3 X136.488 Y241.450 Z0.733 I1.188 J0.000
G3 X134.113 Y241.450 Z0.611 I-1.188 J0.000
G3 X136.488 Y241.450 Z0.488 I1.188 J0.000
G3 X134.113 Y241.450 Z0.366 I-1.188 J0.000
G3 X136.488 Y241.450 Z0.244 I1.188 J0.000
G3 X134.113 Y241.450 Z0.122 I-1.188 J0.000
G3 X136.488 Y241.450 Z0.000 I1.188 J0.000
G3 X134.113 Y241.450 Z0.000 I-1.188 J0.000
G3 X136.488 Y241.450 Z0.000 I1.188 J0.000
G0 X135.300 Y241.450 Z0.000
G0 Z3.175
G0 Z8.175
G0 X182.300 Y241.450 Z8.175
G0 X182.300 Y241.450 Z3.175
G0 X183.488 Y241.450
G1 Z3.175
G3 X181.113 Y241.450 Z3.053 I-1.188 J0.000
G3 X183.488 Y241.450 Z2.931 I1.188 J0.000
G3 X181.113 Y241.450 Z2.809 I-1.188 J0.000
G3 X183.488 Y241.450 Z2.687 I1.188 J0.000
G3 X181.113 Y241.450 Z2.564 I-1.188 J0.000
G3 X183.488 Y241.450 Z2.442 I1.188 J0.000
G3 X181.113 Y241.450 Z2.320 I-1.188 J0.000
G3 X183.488 Y241.450 Z2.198 I1.188 J0.000
G3 X181.113 Y241.450 Z2.076 I-1.188 J0.000
G3 X183.488 Y241.450 Z1.954 I1.188 J0.000
G3 X181.113 Y241.450 Z1.832 I-1.188 J0.000
G3 X183.488 Y241.450 Z1.710 I1.188 J0.000
G3 X181.113 Y241.450 Z1.588 I-1.188 J0.000
G3 X183.488 Y241.450 Z1.465 I1.188 J0.000
G3 X181.113 Y241.450 Z1.343 I-1.188 J0.000
G3 X183.488 Y241.450 Z1.221 I1.188 J0.000
G3 X181.113 Y241.450 Z1.099 I-1.188 J0.000
G3 X183.488 Y241.450 Z0.977 I1.188 J0.000
G3 X181.113 Y241.450 Z0.855 I-1.188 J0.000
G3 X183.488 Y241.450 Z0.733 I1.188 J0.000
G3 X181.113 Y241.450 Z0.611 I-1.188 J0.000
G3 X183.488 Y241.450 Z0.488 I1.188 J0.000
G3 X181.113 Y241.450 Z0.366 I-1.188 J0.000
G3 X183.488 Y241.450 Z0.244 I1.188 J0.000
G3 X181.113 Y241.450 Z0.122 I-1.188 J0.000
G3 X183.488 Y241.450 Z0.000 I1.188 J0.000
G3 X181.113 Y241.450 Z0.000 I-1.188 J0.000
G3 X183.488 Y241.450 Z0.000 I1.188 J0.000
G0 X182.300 Y241.450 Z0.000
G0 Z3.175
G0 Z8.175
G0 X187.850 Y280.950 Z8.175
G0 X187.850 Y280.950 Z3.175
G0 X189.413 Y280.950
G1 Z3.175
G3 X186.288 Y280.950 Z3.053 I-1.562 J0.000
G3 X189.413 Y280.950 Z2.931 I1.562 J0.000
G3 X186.288 Y280.950 Z2.809 I-1.562 J0.000
G3 X189.413 Y280.950 Z2.687 I1.562 J0.000
G3 X186.288 Y280.950 Z2.564 I-1.562 J0.000
G3 X189.413 Y280.950 Z2.442 I1.562 J0.000
G3 X186.288 Y280.950 Z2.320 I-1.562 J0.000
G3 X189.413 Y280.950 Z2.198 I1.562 J0.000
G3 X186.288 Y280.950 Z2.076 I-1.562 J0.000
G3 X189.413 Y280.950 Z1.954 I1.562 J0.000
G3 X186.288 Y280.950 Z1.832 I-1.562 J0.000
G3 X189.413 Y280.950 Z1.710 I1.562 J0.000
G3 X186.288 Y280.950 Z1.588 I-1.562 J0.000
G3 X189.413 Y280.950 Z1.465 I1.562 J0.000
G3 X186.288 Y280.950 Z1.343 I-1.562 J0.000
G3 X189.413 Y280.950 Z1.221 I1.562 J0.000
G3 X186.288 Y280.950 Z1.099 I-1.562 J0.000
G3 X189.413 Y280.950 Z0.977 I1.562 J0.000
G3 X186.288 Y280.950 Z0.855 I-1.562 J0.000
G3 X189.413 Y280.950 Z0.733 I1.562 J0.000
G3 X186.288 Y280.950 Z0.611 I-1.562 J0.000
G3 X189.413 Y280.950 Z0.488 I1.562 J0.000
G3 X186.288 Y280.950 Z0.366 I-1.562 J0.000
G3 X189.413 Y280.950 Z0.244 I1.562 J0.000
G3 X186.288 Y280.950 Z0.122 I-1.562 J0.000
G3 X189.413 Y280.950 Z0.000 I1.562 J0.000
G3 X186.288 Y280.950 Z0.000 I-1.562 J0.000
G3 X189.413 Y280.950 Z0.000 I1.562 J0.000
G0 X187.850 Y280.950 Z0.000
G0 Z3.175
G0 X189.615 Y280.950
G1 Z3.175
G3 X186.085 Y280.950 Z3.053 I-1.765 J0.000
G3 X189.615 Y280.950 Z2.931 I1.765 J0.000
G3 X186.085 Y280.950 Z2.809 I-1.765 J0.000
G3 X189.615 Y280.950 Z2.687 I1.765 J0.000
G3 X186.085 Y280.950 Z2.564 I-1.765 J0.000
G3 X189.615 Y280.950 Z2.442 I1.765 J0.000
G3 X186.085 Y280.950 Z2.320 I-1.765 J0.000
G3 X189.615 Y280.950 Z2.198 I1.765 J0.000
G3 X186.085 Y280.950 Z2.076 I-1.765 J0.000
G3 X189.615 Y280.950 Z1.954 I1.765 J0.000
G3 X186.085 Y280.950 Z1.832 I-1.765 J0.000
G3 X189.615 Y280.950 Z1.710 I1.765 J0.000
G3 X186.085 Y280.950 Z1.588 I-1.765 J0.000
G3 X189.615 Y280.950 Z1.465 I1.765 J0.000
G3 X186.085 Y280.950 Z1.343 I-1.765 J0.000
G3 X189.615 Y280.950 Z1.221 I1.765 J0.000
G3 X186.085 Y280.950 Z1.099 I-1.765 J0.000
G3 X189.615 Y280.950 Z0.977 I1.765 J0.000
G3 X186.085 Y280.950 Z0.855 I-1.765 J0.000
G3 X189.615 Y280.950 Z0.733 I1.765 J0.000
G3 X186.085 Y280.950 Z0.611 I-1.765 J0.000
G3 X189.615 Y280.950 Z0.488 I1.765 J0.000
G3 X186.085 Y280.950 Z0.366 I-1.765 J0.000
G3 X189.615 Y280.950 Z0.244 I1.765 J0.000
G3 X186.085 Y280.950 Z0.122 I-1.765 J0.000
G3 X189.615 Y280.950 Z0.000 I1.765 J0.000
G3 X186.085 Y280.950 Z0.000 I-1.765 J0.000
G3 X189.615 Y280.950 Z0.000 I1.765 J0.000
G0 X187.850 Y280.950 Z0.000
G0 Z3.175
G0 Z8.175
G0 X225.950 Y280.950 Z8.175
G0 X225.950 Y280.950 Z3.175
G0 X226.928 Y280.950
G1 Z3.175
G3 X224.973 Y280.950 Z3.053 I-0.978 J0.000
G3 X226.928 Y280.950 Z2.931 I0.978 J0.000
G3 X224.973 Y280.950 Z2.809 I-0.978 J0.000
G3 X226.928 Y280.950 Z2.687 I0.978 J0.000
G3 X224.973 Y280.950 Z2.564 I-0.978 J0.000
G3 X226.928 Y280.950 Z2.442 I0.978 J0.000
G3 X224.973 Y280.950 Z2.320 I-0.978 J0.000
G3 X226.928 Y280.950 Z2.198 I0.978 J0.000
G3 X224.973 Y280.950 Z2.076 I-0.978 J0.000
G3 X226.928 Y280.950 Z1.954 I0.978 J0.000
G3 X224.973 Y280.950 Z1.832 I-0.978 J0.000
G3 X226.928 Y280.950 Z1.710 I0.978 J0.000
G3 X224.973 Y280.950 Z1.588 I-0.978 J0.000
G3 X226.928 Y280.950 Z1.465 I0.978 J0.000
G3 X224.973 Y280.950 Z1.343 I-0.978 J0.000
G3 X226.928 Y280.950 Z1.221 I0.978 J0.000
G3 X224.973 Y280.950 Z1.099 I-0.978 J0.000
G3 X226.928 Y280.950 Z0.977 I0.978 J0.000
G3 X224.973 Y280.950 Z0.855 I-0.978 J0.000
G3 X226.928 Y280.950 Z0.733 I0.978 J0.000
G3 X224.973 Y280.950 Z0.611 I-0.978 J0.000
G3 X226.928 Y280.950 Z0.488 I0.978 J0.000
G3 X224.973 Y280.950 Z0.366 I-0.978 J0.000
G3 X226.928 Y280.950 Z0.244 I0.978 J0.000
G3 X224.973 Y280.950 Z0.122 I-0.978 J0.000
G3 X226.928 Y280.950 Z0.000 I0.978 J0.000
G3 X224.973 Y280.950 Z0.000 I-0.978 J0.000
G3 X226.928 Y280.950 Z0.000 I0.978 J0.000
G0 X225.950 Y280.950 Z0.000
G0 Z3.175
G0 Z8.175
G0 X182.300 Y194.450 Z8.175
G0 X182.300 Y194.450 Z3.175
G0 X183.488 Y194.450
G1 Z3.175
G3 X181.113 Y194.450 Z3.053 I-1.188 J0.000
G3 X183.488 Y194.450 Z2.931 I1.188 J0.000
G3 X181.113 Y194.450 Z2.809 I-1.188 J0.000
G3 X183.488 Y194.450 Z2.687 I1.188 J0.000
G3 X181.113 Y194.450 Z2.564 I-1.188 J0.000
G3 X183.488 Y194.450 Z2.442 I1.188 J0.000
G3 X181.113 Y194.450 Z2.320 I-1.188 J0.000
G3 X183.488 Y194.450 Z2.198 I1.188 J0.000
G3 X181.113 Y194.450 Z2.076 I-1.188 J0.000
G3 X183.488 Y194.450 Z1.954 I1.188 J0.000
G3 X181.113 Y194.450 Z1.832 I-1.188 J0.000
G3 X183.488 Y194.450 Z1.710 I1.188 J0.000
G3 X181.113 Y194.450 Z1.588 I-1.188 J0.000
G3 X183.488 Y194.450 Z1.465 I1.188 J0.000
G3 X181.113 Y194.450 Z1.343 I-1.188 J0.000
G3 X183.488 Y194.450 Z1.221 I1.188 J0.000
G3 X181.113 Y194.450 Z1.099 I-1.188 J0.000
G3 X183.488 Y194.450 Z0.977 I1.188 J0.000
G3 X181.113 Y194.450 Z0.855 I-1.188 J0.000
G3 X183.488 Y194.450 Z0.733 I1.188 J0.000
G3 X181.113 Y194.450 Z0.611 I-1.188 J0.000
G3 X183.488 Y194.450 Z0.488 I1.188 J0.000
G3 X181.113 Y194.450 Z0.366 I-1.188 J0.000
G3 X183.488 Y194.450 Z0.244 I1.188 J0.000
G3 X181.113 Y194.450 Z0.122 I-1.188 J0.000
G3 X183.488 Y194.450 Z0.000 I1.188 J0.000
G3 X181.113 Y194.450 Z0.000 I-1.188 J0.000
G3 X183.488 Y194.450 Z0.000 I1.188 J0.000
G0 X182.300 Y194.450 Z0.000
G0 Z3.175
G0 Z8.175
G0 X187.850 Y154.950 Z8.175
G0 X187.850 Y154.950 Z3.175
G0 X189.413 Y154.950
G1 Z3.175
G3 X186.288 Y154.950 Z3.053 I-1.562 J0.000
G3 X189.413 Y154.950 Z2.931 I1.562 J0.000
G3 X186.288 Y154.950 Z2.809 I-1.562 J0.000
G3 X189.413 Y154.950 Z2.687 I1.562 J0.000
G3 X186.288 Y154.950 Z2.564 I-1.562 J0.000
G3 X189.413 Y154.950 Z2.442 I1.562 J0.000
G3 X186.288 Y154.950 Z2.320 I-1.562 J0.000
G3 X189.413 Y154.950 Z2.198 I1.562 J0.000
G3 X186.288 Y154.950 Z2.076 I-1.562 J0.000
G3 X189.413 Y154.950 Z1.954 I1.562 J0.000
G3 X186.288 Y154.950 Z1.832 I-1.562 J0.000
G3 X189.413 Y154.950 Z1.710 I1.562 J0.000
G3 X186.288 Y154.950 Z1.588 I-1.562 J0.000
G3 X189.413 Y154.950 Z1.465 I1.562 J0.000
G3 X186.288 Y154.950 Z1.343 I-1.562 J0.000
G3 X189.413 Y154.950 Z1.221 I1.562 J0.000
G3 X186.288 Y154.950 Z1.099 I-1.562 J0.000
G3 X189.413 Y154.950 Z0.977 I1.562 J0.000
G3 X186.288 Y154.950 Z0.855 I-1.562 J0.000
G3 X189.413 Y154.950 Z0.733 I1.562 J0.000
G3 X186.288 Y154.950 Z0.611 I-1.562 J0.000
G3 X189.413 Y154.950 Z0.488 I1.562 J0.000
G3 X186.288 Y154.950 Z0.366 I-1.562 J0.000
G3 X189.413 Y154.950 Z0.244 I1.562 J0.000
G3 X186.288 Y154.950 Z0.122 I-1.562 J0.000
G3 X189.413 Y154.950 Z0.000 I1.562 J0.000
G3 X186.288 Y154.950 Z0.000 I-1.562 J0.000
G3 X189.413 Y154.950 Z0.000 I1.562 J0.000
G0 X187.850 Y154.950 Z0.000
G0 Z3.175
G0 X189.615 Y154.950
G1 Z3.175
G3 X186.085 Y154.950 Z3.053 I-1.765 J0.000
G3 X189.615 Y154.950 Z2.931 I1.765 J0.000
G3 X186.085 Y154.950 Z2.809 I-1.765 J0.000
G3 X189.615 Y154.950 Z2.687 I1.765 J0.000
G3 X186.085 Y154.950 Z2.564 I-1.765 J0.000
G3 X189.615 Y154.950 Z2.442 I1.765 J0.000
G3 X186.085 Y154.950 Z2.320 I-1.765 J0.000
G3 X189.615 Y154.950 Z2.198 I1.765 J0.000
G3 X186.085 Y154.950 Z2.076 I-1.765 J0.000
G3 X189.615 Y154.950 Z1.954 I1.765 J0.000
G3 X186.085 Y154.950 Z1.832 I-1.765 J0.000
G3 X189.615 Y154.950 Z1.710 I1.765 J0.000
G3 X186.085 Y154.950 Z1.588 I-1.765 J0.000
G3 X189.615 Y154.950 Z1.465 I1.765 J0.000
G3 X186.085 Y154.950 Z1.343 I-1.765 J0.000
G3 X189.615 Y154.950 Z1.221 I1.765 J0.000
G3 X186.085 Y154.950 Z1.099 I-1.765 J0.000
G3 X189.615 Y154.950 Z0.977 I1.765 J0.000
G3 X186.085 Y154.950 Z0.855 I-1.765 J0.000
G3 X189.615 Y154.950 Z0.733 I1.765 J0.000
G3 X186.085 Y154.950 Z0.611 I-1.765 J0.000
G3 X189.615 Y154.950 Z0.488 I1.765 J0.000
G3 X186.085 Y154.950 Z0.366 I-1.765 J0.000
G3 X189.615 Y154.950 Z0.244 I1.765 J0.000
G3 X186.085 Y154.950 Z0.122 I-1.765 J0.000
G3 X189.615 Y154.950 Z0.000 I1.765 J0.000
G3 X186.085 Y154.950 Z0.000 I-1.765 J0.000
G3 X189.615 Y154.950 Z0.000 I1.765 J0.000
G0 X187.850 Y154.950 Z0.000
G0 Z3.175
G0 Z8.175
G0 X225.950 Y154.950 Z8.175
G0 X225.950 Y154.950 Z3.175
G0 X226.928 Y154.950
G1 Z3.175
G3 X224.973 Y154.950 Z3.053 I-0.978 J0.000
G3 X226.928 Y154.950 Z2.931 I0.978 J0.000
G3 X224.973 Y154.950 Z2.809 I-0.978 J0.000
G3 X226.928 Y154.950 Z2.687 I0.978 J0.000
G3 X224.973 Y154.950 Z2.564 I-0.978 J0.000
G3 X226.928 Y154.950 Z2.442 I0.978 J0.000
G3 X224.973 Y154.950 Z2.320 I-0.978 J0.000
G3 X226.928 Y154.950 Z2.198 I0.978 J0.000
G3 X224.973 Y154.950 Z2.076 I-0.978 J0.000
G3 X226.928 Y154.950 Z1.954 I0.978 J0.000
G3 X224.973 Y154.950 Z1.832 I-0.978 J0.000
G3 X226.928 Y154.950 Z1.710 I0.978 J0.000
G3 X224.973 Y154.950 Z1.588 I-0.978 J0.000
G3 X226.928 Y154.950 Z1.465 I0.978 J0.000
G3 X224.973 Y154.950 Z1.343 I-0.978 J0.000
G3 X226.928 Y154.950 Z1.221 I0.978 J0.000
G3 X224.973 Y154.950 Z1.099 I-0.978 J0.000
G3 X226.928 Y154.950 Z0.977 I0.978 J0.000
G3 X224.973 Y154.950 Z0.855 I-0.978 J0.000
G3 X226.928 Y154.950 Z0.733 I0.978 J0.000
G3 X224.973 Y154.950 Z0.611 I-0.978 J0.000
G3 X226.928 Y154.950 Z0.488 I0.978 J0.000
G3 X224.973 Y154.950 Z0.366 I-0.978 J0.000
G3 X226.928 Y154.950 Z0.244 I0.978 J0.000
G3 X224.973 Y154.950 Z0.122 I-0.978 J0.000
G3 X226.928 Y154.950 Z0.000 I0.978 J0.000
G3 X224.973 Y154.950 Z0.000 I-0.978 J0.000
G3 X226.928 Y154.950 Z0.000 I0.978 J0.000
G0 X225.950 Y154.950 Z0.000
G0 Z3.175
G0 Z8.175
(Begin postamble)
M5
