(Exported by FreeCAD)
(Post Processor: marlin_post.py, version: 2020-11-03)
(Output Time:2023-07-12 21:07:16.317423)
(Begin preamble)
(Default Configuration)
G90
G21
G17
(Begin operation: G54)
G54
G0 Z8.175
(Begin operation: TC: Default Tool001)
(TC: Default Tool001)
(Begin toolchange)
(M6 T1.0)
(Begin operation: Profile001)
(Profile001)
(Compensated Tool Path. Diameter: 3.125)
G0 Z8.175
G0 X170.069 Y229.219
G0 Z6.175
G1 X170.069 Y229.219 Z2.925
G3 X157.227 Y233.809 Z2.925 I-11.269 J-11.269 K0.000
G3 X160.373 Y202.091 Z2.925 I1.573 J-15.859 K0.000
G3 X170.069 Y229.219 Z2.925 I-1.573 J15.859 K0.000
G1 X170.069 Y229.219 Z2.675
G3 X157.227 Y233.809 Z2.675 I-11.269 J-11.269 K0.000
G3 X160.373 Y202.091 Z2.675 I1.573 J-15.859 K0.000
G3 X170.069 Y229.219 Z2.675 I-1.573 J15.859 K0.000
G1 X170.069 Y229.219 Z2.425
G3 X157.227 Y233.809 Z2.425 I-11.269 J-11.269 K0.000
G3 X160.373 Y202.091 Z2.425 I1.573 J-15.859 K0.000
G3 X170.069 Y229.219 Z2.425 I-1.573 J15.859 K0.000
G1 X170.069 Y229.219 Z2.175
G3 X157.227 Y233.809 Z2.175 I-11.269 J-11.269 K0.000
G3 X160.373 Y202.091 Z2.175 I1.573 J-15.859 K0.000
G3 X170.069 Y229.219 Z2.175 I-1.573 J15.859 K0.000
G1 X170.069 Y229.219 Z1.925
G3 X157.227 Y233.809 Z1.925 I-11.269 J-11.269 K0.000
G3 X160.373 Y202.091 Z1.925 I1.573 J-15.859 K0.000
G3 X170.069 Y229.219 Z1.925 I-1.573 J15.859 K0.000
G1 X170.069 Y229.219 Z1.675
G3 X157.227 Y233.809 Z1.675 I-11.269 J-11.269 K0.000
G3 X160.373 Y202.091 Z1.675 I1.573 J-15.859 K0.000
G3 X170.069 Y229.219 Z1.675 I-1.573 J15.859 K0.000
G1 X170.069 Y229.219 Z1.425
G3 X157.227 Y233.809 Z1.425 I-11.269 J-11.269 K0.000
G3 X160.373 Y202.091 Z1.425 I1.573 J-15.859 K0.000
G3 X170.069 Y229.219 Z1.425 I-1.573 J15.859 K0.000
G1 X170.069 Y229.219 Z1.175
G3 X157.227 Y233.809 Z1.175 I-11.269 J-11.269 K0.000
G3 X160.373 Y202.091 Z1.175 I1.573 J-15.859 K0.000
G3 X170.069 Y229.219 Z1.175 I-1.573 J15.859 K0.000
G1 X170.069 Y229.219 Z0.925
G3 X157.227 Y233.809 Z0.925 I-11.269 J-11.269 K0.000
G3 X160.373 Y202.091 Z0.925 I1.573 J-15.859 K0.000
G3 X170.069 Y229.219 Z0.925 I-1.573 J15.859 K0.000
G1 X170.069 Y229.219 Z0.675
G3 X157.227 Y233.809 Z0.675 I-11.269 J-11.269 K0.000
G3 X160.373 Y202.091 Z0.675 I1.573 J-15.859 K0.000
G3 X170.069 Y229.219 Z0.675 I-1.573 J15.859 K0.000
G1 X170.069 Y229.219 Z0.425
G3 X157.227 Y233.809 Z0.425 I-11.269 J-11.269 K0.000
G3 X160.373 Y202.091 Z0.425 I1.573 J-15.859 K0.000
G3 X170.069 Y229.219 Z0.425 I-1.573 J15.859 K0.000
G1 X170.069 Y229.219 Z0.175
G3 X157.227 Y233.809 Z0.175 I-11.269 J-11.269 K0.000
G3 X160.373 Y202.091 Z0.175 I1.573 J-15.859 K0.000
G3 X170.069 Y229.219 Z0.175 I-1.573 J15.859 K0.000
G1 X170.069 Y229.219 Z0.000
G3 X157.227 Y233.809 Z0.000 I-11.269 J-11.269 K0.000
G3 X160.373 Y202.091 Z0.000 I1.573 J-15.859 K0.000
G3 X170.069 Y229.219 Z0.000 I-1.573 J15.859 K0.000
G0 Z8.175
G0 Z8.175
(Begin postamble)
M5
