(Exported by FreeCAD)
(Post Processor: marlin_post.py, version: 2020-11-03)
(Output Time:2023-07-12 22:13:45.965861)
(Begin preamble)
(Default Configuration)
G90
G21
G17
(Begin operation: G54)
G54
G0 Z8.175
(Begin operation: TC: Default Tool)
(TC: Default Tool)
(Begin toolchange)
(M6 T1.0)
(Begin operation: Profile)
(Profile)
(Compensated Tool Path. Diameter: 5.0)
G0 Z8.175
G0 X246.768 Y301.768
G0 Z6.175
G1 X246.768 Y301.768 Z3.050
G3 X245.000 Y302.500 Z3.050 I-1.768 J-1.768 K0.000
G1 X120.000 Y302.500 Z3.050
G3 X117.500 Y300.000 Z3.050 I0.000 J-2.500 K0.000
G1 X117.500 Y171.036 Z3.050
G1 X-1.768 Y51.768 Z3.050
G3 X-2.500 Y50.000 Z3.050 I1.768 J-1.768 K0.000
G1 X-2.500 Y0.000 Z3.050
G3 X0.000 Y-2.500 Z3.050 I2.500 J0.000 K0.000
G1 X156.000 Y-2.500 Z3.050
G3 X158.500 Y0.000 Z3.050 I-0.000 J2.500 K0.000
G1 X158.500 Y48.964 Z3.050
G1 X246.768 Y137.232 Z3.050
G3 X247.500 Y139.000 Z3.050 I-1.768 J1.768 K0.000
G1 X247.500 Y300.000 Z3.050
G3 X246.768 Y301.768 Z3.050 I-2.500 J-0.000 K0.000
G1 X246.768 Y301.768 Z2.925
G3 X245.000 Y302.500 Z2.925 I-1.768 J-1.768 K0.000
G1 X120.000 Y302.500 Z2.925
G3 X117.500 Y300.000 Z2.925 I0.000 J-2.500 K0.000
G1 X117.500 Y171.036 Z2.925
G1 X-1.768 Y51.768 Z2.925
G3 X-2.500 Y50.000 Z2.925 I1.768 J-1.768 K0.000
G1 X-2.500 Y0.000 Z2.925
G3 X0.000 Y-2.500 Z2.925 I2.500 J0.000 K0.000
G1 X156.000 Y-2.500 Z2.925
G3 X158.500 Y0.000 Z2.925 I-0.000 J2.500 K0.000
G1 X158.500 Y48.964 Z2.925
G1 X246.768 Y137.232 Z2.925
G3 X247.500 Y139.000 Z2.925 I-1.768 J1.768 K0.000
G1 X247.500 Y300.000 Z2.925
G3 X246.768 Y301.768 Z2.925 I-2.500 J-0.000 K0.000
G1 X246.768 Y301.768 Z2.800
G3 X245.000 Y302.500 Z2.800 I-1.768 J-1.768 K0.000
G1 X120.000 Y302.500 Z2.800
G3 X117.500 Y300.000 Z2.800 I0.000 J-2.500 K0.000
G1 X117.500 Y171.036 Z2.800
G1 X-1.768 Y51.768 Z2.800
G3 X-2.500 Y50.000 Z2.800 I1.768 J-1.768 K0.000
G1 X-2.500 Y0.000 Z2.800
G3 X0.000 Y-2.500 Z2.800 I2.500 J0.000 K0.000
G1 X156.000 Y-2.500 Z2.800
G3 X158.500 Y0.000 Z2.800 I-0.000 J2.500 K0.000
G1 X158.500 Y48.964 Z2.800
G1 X246.768 Y137.232 Z2.800
G3 X247.500 Y139.000 Z2.800 I-1.768 J1.768 K0.000
G1 X247.500 Y300.000 Z2.800
G3 X246.768 Y301.768 Z2.800 I-2.500 J-0.000 K0.000
G1 X246.768 Y301.768 Z2.675
G3 X245.000 Y302.500 Z2.675 I-1.768 J-1.768 K0.000
G1 X120.000 Y302.500 Z2.675
G3 X117.500 Y300.000 Z2.675 I0.000 J-2.500 K0.000
G1 X117.500 Y171.036 Z2.675
G1 X-1.768 Y51.768 Z2.675
G3 X-2.500 Y50.000 Z2.675 I1.768 J-1.768 K0.000
G1 X-2.500 Y0.000 Z2.675
G3 X0.000 Y-2.500 Z2.675 I2.500 J0.000 K0.000
G1 X156.000 Y-2.500 Z2.675
G3 X158.500 Y0.000 Z2.675 I-0.000 J2.500 K0.000
G1 X158.500 Y48.964 Z2.675
G1 X246.768 Y137.232 Z2.675
G3 X247.500 Y139.000 Z2.675 I-1.768 J1.768 K0.000
G1 X247.500 Y300.000 Z2.675
G3 X246.768 Y301.768 Z2.675 I-2.500 J-0.000 K0.000
G1 X246.768 Y301.768 Z2.550
G3 X245.000 Y302.500 Z2.550 I-1.768 J-1.768 K0.000
G1 X120.000 Y302.500 Z2.550
G3 X117.500 Y300.000 Z2.550 I0.000 J-2.500 K0.000
G1 X117.500 Y171.036 Z2.550
G1 X-1.768 Y51.768 Z2.550
G3 X-2.500 Y50.000 Z2.550 I1.768 J-1.768 K0.000
G1 X-2.500 Y0.000 Z2.550
G3 X0.000 Y-2.500 Z2.550 I2.500 J0.000 K0.000
G1 X156.000 Y-2.500 Z2.550
G3 X158.500 Y0.000 Z2.550 I-0.000 J2.500 K0.000
G1 X158.500 Y48.964 Z2.550
G1 X246.768 Y137.232 Z2.550
G3 X247.500 Y139.000 Z2.550 I-1.768 J1.768 K0.000
G1 X247.500 Y300.000 Z2.550
G3 X246.768 Y301.768 Z2.550 I-2.500 J-0.000 K0.000
G1 X246.768 Y301.768 Z2.425
G3 X245.000 Y302.500 Z2.425 I-1.768 J-1.768 K0.000
G1 X120.000 Y302.500 Z2.425
G3 X117.500 Y300.000 Z2.425 I0.000 J-2.500 K0.000
G1 X117.500 Y171.036 Z2.425
G1 X-1.768 Y51.768 Z2.425
G3 X-2.500 Y50.000 Z2.425 I1.768 J-1.768 K0.000
G1 X-2.500 Y0.000 Z2.425
G3 X0.000 Y-2.500 Z2.425 I2.500 J0.000 K0.000
G1 X156.000 Y-2.500 Z2.425
G3 X158.500 Y0.000 Z2.425 I-0.000 J2.500 K0.000
G1 X158.500 Y48.964 Z2.425
G1 X246.768 Y137.232 Z2.425
G3 X247.500 Y139.000 Z2.425 I-1.768 J1.768 K0.000
G1 X247.500 Y300.000 Z2.425
G3 X246.768 Y301.768 Z2.425 I-2.500 J-0.000 K0.000
G1 X246.768 Y301.768 Z2.300
G3 X245.000 Y302.500 Z2.300 I-1.768 J-1.768 K0.000
G1 X120.000 Y302.500 Z2.300
G3 X117.500 Y300.000 Z2.300 I0.000 J-2.500 K0.000
G1 X117.500 Y171.036 Z2.300
G1 X-1.768 Y51.768 Z2.300
G3 X-2.500 Y50.000 Z2.300 I1.768 J-1.768 K0.000
G1 X-2.500 Y0.000 Z2.300
G3 X0.000 Y-2.500 Z2.300 I2.500 J0.000 K0.000
G1 X156.000 Y-2.500 Z2.300
G3 X158.500 Y0.000 Z2.300 I-0.000 J2.500 K0.000
G1 X158.500 Y48.964 Z2.300
G1 X246.768 Y137.232 Z2.300
G3 X247.500 Y139.000 Z2.300 I-1.768 J1.768 K0.000
G1 X247.500 Y300.000 Z2.300
G3 X246.768 Y301.768 Z2.300 I-2.500 J-0.000 K0.000
G1 X246.768 Y301.768 Z2.175
G3 X245.000 Y302.500 Z2.175 I-1.768 J-1.768 K0.000
G1 X120.000 Y302.500 Z2.175
G3 X117.500 Y300.000 Z2.175 I0.000 J-2.500 K0.000
G1 X117.500 Y171.036 Z2.175
G1 X-1.768 Y51.768 Z2.175
G3 X-2.500 Y50.000 Z2.175 I1.768 J-1.768 K0.000
G1 X-2.500 Y0.000 Z2.175
G3 X0.000 Y-2.500 Z2.175 I2.500 J0.000 K0.000
G1 X156.000 Y-2.500 Z2.175
G3 X158.500 Y0.000 Z2.175 I-0.000 J2.500 K0.000
G1 X158.500 Y48.964 Z2.175
G1 X246.768 Y137.232 Z2.175
G3 X247.500 Y139.000 Z2.175 I-1.768 J1.768 K0.000
G1 X247.500 Y300.000 Z2.175
G3 X246.768 Y301.768 Z2.175 I-2.500 J-0.000 K0.000
G1 X246.768 Y301.768 Z2.050
G3 X245.000 Y302.500 Z2.050 I-1.768 J-1.768 K0.000
G1 X120.000 Y302.500 Z2.050
G3 X117.500 Y300.000 Z2.050 I0.000 J-2.500 K0.000
G1 X117.500 Y171.036 Z2.050
G1 X-1.768 Y51.768 Z2.050
G3 X-2.500 Y50.000 Z2.050 I1.768 J-1.768 K0.000
G1 X-2.500 Y0.000 Z2.050
G3 X0.000 Y-2.500 Z2.050 I2.500 J0.000 K0.000
G1 X156.000 Y-2.500 Z2.050
G3 X158.500 Y0.000 Z2.050 I-0.000 J2.500 K0.000
G1 X158.500 Y48.964 Z2.050
G1 X246.768 Y137.232 Z2.050
G3 X247.500 Y139.000 Z2.050 I-1.768 J1.768 K0.000
G1 X247.500 Y300.000 Z2.050
G3 X246.768 Y301.768 Z2.050 I-2.500 J-0.000 K0.000
G1 X246.768 Y301.768 Z1.925
G3 X245.000 Y302.500 Z1.925 I-1.768 J-1.768 K0.000
G1 X120.000 Y302.500 Z1.925
G3 X117.500 Y300.000 Z1.925 I0.000 J-2.500 K0.000
G1 X117.500 Y171.036 Z1.925
G1 X-1.768 Y51.768 Z1.925
G3 X-2.500 Y50.000 Z1.925 I1.768 J-1.768 K0.000
G1 X-2.500 Y0.000 Z1.925
G3 X0.000 Y-2.500 Z1.925 I2.500 J0.000 K0.000
G1 X156.000 Y-2.500 Z1.925
G3 X158.500 Y0.000 Z1.925 I-0.000 J2.500 K0.000
G1 X158.500 Y48.964 Z1.925
G1 X246.768 Y137.232 Z1.925
G3 X247.500 Y139.000 Z1.925 I-1.768 J1.768 K0.000
G1 X247.500 Y300.000 Z1.925
G3 X246.768 Y301.768 Z1.925 I-2.500 J-0.000 K0.000
G1 X246.768 Y301.768 Z1.800
G3 X245.000 Y302.500 Z1.800 I-1.768 J-1.768 K0.000
G1 X120.000 Y302.500 Z1.800
G3 X117.500 Y300.000 Z1.800 I0.000 J-2.500 K0.000
G1 X117.500 Y171.036 Z1.800
G1 X-1.768 Y51.768 Z1.800
G3 X-2.500 Y50.000 Z1.800 I1.768 J-1.768 K0.000
G1 X-2.500 Y0.000 Z1.800
G3 X0.000 Y-2.500 Z1.800 I2.500 J0.000 K0.000
G1 X156.000 Y-2.500 Z1.800
G3 X158.500 Y0.000 Z1.800 I-0.000 J2.500 K0.000
G1 X158.500 Y48.964 Z1.800
G1 X246.768 Y137.232 Z1.800
G3 X247.500 Y139.000 Z1.800 I-1.768 J1.768 K0.000
G1 X247.500 Y300.000 Z1.800
G3 X246.768 Y301.768 Z1.800 I-2.500 J-0.000 K0.000
G1 X246.768 Y301.768 Z1.675
G3 X245.000 Y302.500 Z1.675 I-1.768 J-1.768 K0.000
G1 X120.000 Y302.500 Z1.675
G3 X117.500 Y300.000 Z1.675 I0.000 J-2.500 K0.000
G1 X117.500 Y171.036 Z1.675
G1 X-1.768 Y51.768 Z1.675
G3 X-2.500 Y50.000 Z1.675 I1.768 J-1.768 K0.000
G1 X-2.500 Y0.000 Z1.675
G3 X0.000 Y-2.500 Z1.675 I2.500 J0.000 K0.000
G1 X156.000 Y-2.500 Z1.675
G3 X158.500 Y0.000 Z1.675 I-0.000 J2.500 K0.000
G1 X158.500 Y48.964 Z1.675
G1 X246.768 Y137.232 Z1.675
G3 X247.500 Y139.000 Z1.675 I-1.768 J1.768 K0.000
G1 X247.500 Y300.000 Z1.675
G3 X246.768 Y301.768 Z1.675 I-2.500 J-0.000 K0.000
G1 X246.768 Y301.768 Z1.550
G3 X245.000 Y302.500 Z1.550 I-1.768 J-1.768 K0.000
G1 X120.000 Y302.500 Z1.550
G3 X117.500 Y300.000 Z1.550 I0.000 J-2.500 K0.000
G1 X117.500 Y171.036 Z1.550
G1 X-1.768 Y51.768 Z1.550
G3 X-2.500 Y50.000 Z1.550 I1.768 J-1.768 K0.000
G1 X-2.500 Y0.000 Z1.550
G3 X0.000 Y-2.500 Z1.550 I2.500 J0.000 K0.000
G1 X156.000 Y-2.500 Z1.550
G3 X158.500 Y0.000 Z1.550 I-0.000 J2.500 K0.000
G1 X158.500 Y48.964 Z1.550
G1 X246.768 Y137.232 Z1.550
G3 X247.500 Y139.000 Z1.550 I-1.768 J1.768 K0.000
G1 X247.500 Y300.000 Z1.550
G3 X246.768 Y301.768 Z1.550 I-2.500 J-0.000 K0.000
G1 X246.768 Y301.768 Z1.425
G3 X245.000 Y302.500 Z1.425 I-1.768 J-1.768 K0.000
G1 X120.000 Y302.500 Z1.425
G3 X117.500 Y300.000 Z1.425 I0.000 J-2.500 K0.000
G1 X117.500 Y171.036 Z1.425
G1 X-1.768 Y51.768 Z1.425
G3 X-2.500 Y50.000 Z1.425 I1.768 J-1.768 K0.000
G1 X-2.500 Y0.000 Z1.425
G3 X0.000 Y-2.500 Z1.425 I2.500 J0.000 K0.000
G1 X156.000 Y-2.500 Z1.425
G3 X158.500 Y0.000 Z1.425 I-0.000 J2.500 K0.000
G1 X158.500 Y48.964 Z1.425
G1 X246.768 Y137.232 Z1.425
G3 X247.500 Y139.000 Z1.425 I-1.768 J1.768 K0.000
G1 X247.500 Y300.000 Z1.425
G3 X246.768 Y301.768 Z1.425 I-2.500 J-0.000 K0.000
G1 X246.768 Y301.768 Z1.300
G3 X245.000 Y302.500 Z1.300 I-1.768 J-1.768 K0.000
G1 X120.000 Y302.500 Z1.300
G3 X117.500 Y300.000 Z1.300 I0.000 J-2.500 K0.000
G1 X117.500 Y171.036 Z1.300
G1 X-1.768 Y51.768 Z1.300
G3 X-2.500 Y50.000 Z1.300 I1.768 J-1.768 K0.000
G1 X-2.500 Y0.000 Z1.300
G3 X0.000 Y-2.500 Z1.300 I2.500 J0.000 K0.000
G1 X156.000 Y-2.500 Z1.300
G3 X158.500 Y0.000 Z1.300 I-0.000 J2.500 K0.000
G1 X158.500 Y48.964 Z1.300
G1 X246.768 Y137.232 Z1.300
G3 X247.500 Y139.000 Z1.300 I-1.768 J1.768 K0.000
G1 X247.500 Y300.000 Z1.300
G3 X246.768 Y301.768 Z1.300 I-2.500 J-0.000 K0.000
G1 X246.768 Y301.768 Z1.175
G3 X245.000 Y302.500 Z1.175 I-1.768 J-1.768 K0.000
G1 X120.000 Y302.500 Z1.175
G3 X117.500 Y300.000 Z1.175 I0.000 J-2.500 K0.000
G1 X117.500 Y171.036 Z1.175
G1 X-1.768 Y51.768 Z1.175
G3 X-2.500 Y50.000 Z1.175 I1.768 J-1.768 K0.000
G1 X-2.500 Y0.000 Z1.175
G3 X0.000 Y-2.500 Z1.175 I2.500 J0.000 K0.000
G1 X156.000 Y-2.500 Z1.175
G3 X158.500 Y0.000 Z1.175 I-0.000 J2.500 K0.000
G1 X158.500 Y48.964 Z1.175
G1 X246.768 Y137.232 Z1.175
G3 X247.500 Y139.000 Z1.175 I-1.768 J1.768 K0.000
G1 X247.500 Y300.000 Z1.175
G3 X246.768 Y301.768 Z1.175 I-2.500 J-0.000 K0.000
G1 X246.768 Y301.768 Z1.050
G3 X245.000 Y302.500 Z1.050 I-1.768 J-1.768 K0.000
G1 X120.000 Y302.500 Z1.050
G3 X117.500 Y300.000 Z1.050 I0.000 J-2.500 K0.000
G1 X117.500 Y171.036 Z1.050
G1 X-1.768 Y51.768 Z1.050
G3 X-2.500 Y50.000 Z1.050 I1.768 J-1.768 K0.000
G1 X-2.500 Y0.000 Z1.050
G3 X0.000 Y-2.500 Z1.050 I2.500 J0.000 K0.000
G1 X156.000 Y-2.500 Z1.050
G3 X158.500 Y0.000 Z1.050 I-0.000 J2.500 K0.000
G1 X158.500 Y48.964 Z1.050
G1 X246.768 Y137.232 Z1.050
G3 X247.500 Y139.000 Z1.050 I-1.768 J1.768 K0.000
G1 X247.500 Y300.000 Z1.050
G3 X246.768 Y301.768 Z1.050 I-2.500 J-0.000 K0.000
G1 X246.768 Y301.768 Z0.925
G3 X245.000 Y302.500 Z0.925 I-1.768 J-1.768 K0.000
G1 X120.000 Y302.500 Z0.925
G3 X117.500 Y300.000 Z0.925 I0.000 J-2.500 K0.000
G1 X117.500 Y171.036 Z0.925
G1 X-1.768 Y51.768 Z0.925
G3 X-2.500 Y50.000 Z0.925 I1.768 J-1.768 K0.000
G1 X-2.500 Y0.000 Z0.925
G3 X0.000 Y-2.500 Z0.925 I2.500 J0.000 K0.000
G1 X156.000 Y-2.500 Z0.925
G3 X158.500 Y0.000 Z0.925 I-0.000 J2.500 K0.000
G1 X158.500 Y48.964 Z0.925
G1 X246.768 Y137.232 Z0.925
G3 X247.500 Y139.000 Z0.925 I-1.768 J1.768 K0.000
G1 X247.500 Y300.000 Z0.925
G3 X246.768 Y301.768 Z0.925 I-2.500 J-0.000 K0.000
G1 X246.768 Y301.768 Z0.800
G3 X245.000 Y302.500 Z0.800 I-1.768 J-1.768 K0.000
G1 X120.000 Y302.500 Z0.800
G3 X117.500 Y300.000 Z0.800 I0.000 J-2.500 K0.000
G1 X117.500 Y171.036 Z0.800
G1 X-1.768 Y51.768 Z0.800
G3 X-2.500 Y50.000 Z0.800 I1.768 J-1.768 K0.000
G1 X-2.500 Y0.000 Z0.800
G3 X0.000 Y-2.500 Z0.800 I2.500 J0.000 K0.000
G1 X156.000 Y-2.500 Z0.800
G3 X158.500 Y0.000 Z0.800 I-0.000 J2.500 K0.000
G1 X158.500 Y48.964 Z0.800
G1 X246.768 Y137.232 Z0.800
G3 X247.500 Y139.000 Z0.800 I-1.768 J1.768 K0.000
G1 X247.500 Y300.000 Z0.800
G3 X246.768 Y301.768 Z0.800 I-2.500 J-0.000 K0.000
G1 X246.768 Y301.768 Z0.675
G3 X245.000 Y302.500 Z0.675 I-1.768 J-1.768 K0.000
G1 X120.000 Y302.500 Z0.675
G3 X117.500 Y300.000 Z0.675 I0.000 J-2.500 K0.000
G1 X117.500 Y171.036 Z0.675
G1 X-1.768 Y51.768 Z0.675
G3 X-2.500 Y50.000 Z0.675 I1.768 J-1.768 K0.000
G1 X-2.500 Y0.000 Z0.675
G3 X0.000 Y-2.500 Z0.675 I2.500 J0.000 K0.000
G1 X156.000 Y-2.500 Z0.675
G3 X158.500 Y0.000 Z0.675 I-0.000 J2.500 K0.000
G1 X158.500 Y48.964 Z0.675
G1 X246.768 Y137.232 Z0.675
G3 X247.500 Y139.000 Z0.675 I-1.768 J1.768 K0.000
G1 X247.500 Y300.000 Z0.675
G3 X246.768 Y301.768 Z0.675 I-2.500 J-0.000 K0.000
G1 X246.768 Y301.768 Z0.550
G3 X245.000 Y302.500 Z0.550 I-1.768 J-1.768 K0.000
G1 X120.000 Y302.500 Z0.550
G3 X117.500 Y300.000 Z0.550 I0.000 J-2.500 K0.000
G1 X117.500 Y171.036 Z0.550
G1 X-1.768 Y51.768 Z0.550
G3 X-2.500 Y50.000 Z0.550 I1.768 J-1.768 K0.000
G1 X-2.500 Y0.000 Z0.550
G3 X0.000 Y-2.500 Z0.550 I2.500 J0.000 K0.000
G1 X156.000 Y-2.500 Z0.550
G3 X158.500 Y0.000 Z0.550 I-0.000 J2.500 K0.000
G1 X158.500 Y48.964 Z0.550
G1 X246.768 Y137.232 Z0.550
G3 X247.500 Y139.000 Z0.550 I-1.768 J1.768 K0.000
G1 X247.500 Y300.000 Z0.550
G3 X246.768 Y301.768 Z0.550 I-2.500 J-0.000 K0.000
G1 X246.768 Y301.768 Z0.425
G3 X245.000 Y302.500 Z0.425 I-1.768 J-1.768 K0.000
G1 X120.000 Y302.500 Z0.425
G3 X117.500 Y300.000 Z0.425 I0.000 J-2.500 K0.000
G1 X117.500 Y171.036 Z0.425
G1 X-1.768 Y51.768 Z0.425
G3 X-2.500 Y50.000 Z0.425 I1.768 J-1.768 K0.000
G1 X-2.500 Y0.000 Z0.425
G3 X0.000 Y-2.500 Z0.425 I2.500 J0.000 K0.000
G1 X156.000 Y-2.500 Z0.425
G3 X158.500 Y0.000 Z0.425 I-0.000 J2.500 K0.000
G1 X158.500 Y48.964 Z0.425
G1 X246.768 Y137.232 Z0.425
G3 X247.500 Y139.000 Z0.425 I-1.768 J1.768 K0.000
G1 X247.500 Y300.000 Z0.425
G3 X246.768 Y301.768 Z0.425 I-2.500 J-0.000 K0.000
G1 X246.768 Y301.768 Z0.300
G3 X245.000 Y302.500 Z0.300 I-1.768 J-1.768 K0.000
G1 X120.000 Y302.500 Z0.300
G3 X117.500 Y300.000 Z0.300 I0.000 J-2.500 K0.000
G1 X117.500 Y171.036 Z0.300
G1 X-1.768 Y51.768 Z0.300
G3 X-2.500 Y50.000 Z0.300 I1.768 J-1.768 K0.000
G1 X-2.500 Y0.000 Z0.300
G3 X0.000 Y-2.500 Z0.300 I2.500 J0.000 K0.000
G1 X156.000 Y-2.500 Z0.300
G3 X158.500 Y0.000 Z0.300 I-0.000 J2.500 K0.000
G1 X158.500 Y48.964 Z0.300
G1 X246.768 Y137.232 Z0.300
G3 X247.500 Y139.000 Z0.300 I-1.768 J1.768 K0.000
G1 X247.500 Y300.000 Z0.300
G3 X246.768 Y301.768 Z0.300 I-2.500 J-0.000 K0.000
G1 X246.768 Y301.768 Z0.175
G3 X245.000 Y302.500 Z0.175 I-1.768 J-1.768 K0.000
G1 X120.000 Y302.500 Z0.175
G3 X117.500 Y300.000 Z0.175 I0.000 J-2.500 K0.000
G1 X117.500 Y171.036 Z0.175
G1 X-1.768 Y51.768 Z0.175
G3 X-2.500 Y50.000 Z0.175 I1.768 J-1.768 K0.000
G1 X-2.500 Y0.000 Z0.175
G3 X0.000 Y-2.500 Z0.175 I2.500 J0.000 K0.000
G1 X156.000 Y-2.500 Z0.175
G3 X158.500 Y0.000 Z0.175 I-0.000 J2.500 K0.000
G1 X158.500 Y48.964 Z0.175
G1 X246.768 Y137.232 Z0.175
G3 X247.500 Y139.000 Z0.175 I-1.768 J1.768 K0.000
G1 X247.500 Y300.000 Z0.175
G3 X246.768 Y301.768 Z0.175 I-2.500 J-0.000 K0.000
G1 X246.768 Y301.768 Z0.050
G3 X245.000 Y302.500 Z0.050 I-1.768 J-1.768 K0.000
G1 X120.000 Y302.500 Z0.050
G3 X117.500 Y300.000 Z0.050 I0.000 J-2.500 K0.000
G1 X117.500 Y171.036 Z0.050
G1 X-1.768 Y51.768 Z0.050
G3 X-2.500 Y50.000 Z0.050 I1.768 J-1.768 K0.000
G1 X-2.500 Y0.000 Z0.050
G3 X0.000 Y-2.500 Z0.050 I2.500 J0.000 K0.000
G1 X156.000 Y-2.500 Z0.050
G3 X158.500 Y0.000 Z0.050 I-0.000 J2.500 K0.000
G1 X158.500 Y48.964 Z0.050
G1 X246.768 Y137.232 Z0.050
G3 X247.500 Y139.000 Z0.050 I-1.768 J1.768 K0.000
G1 X247.500 Y300.000 Z0.050
G3 X246.768 Y301.768 Z0.050 I-2.500 J-0.000 K0.000
G1 X246.768 Y301.768 Z0.000
G3 X245.000 Y302.500 Z0.000 I-1.768 J-1.768 K0.000
G1 X120.000 Y302.500 Z0.000
G3 X117.500 Y300.000 Z0.000 I0.000 J-2.500 K0.000
G1 X117.500 Y171.036 Z0.000
G1 X-1.768 Y51.768 Z0.000
G3 X-2.500 Y50.000 Z0.000 I1.768 J-1.768 K0.000
G1 X-2.500 Y0.000 Z0.000
G3 X0.000 Y-2.500 Z0.000 I2.500 J0.000 K0.000
G1 X156.000 Y-2.500 Z0.000
G3 X158.500 Y0.000 Z0.000 I-0.000 J2.500 K0.000
G1 X158.500 Y48.964 Z0.000
G1 X246.768 Y137.232 Z0.000
G3 X247.500 Y139.000 Z0.000 I-1.768 J1.768 K0.000
G1 X247.500 Y300.000 Z0.000
G3 X246.768 Y301.768 Z0.000 I-2.500 J-0.000 K0.000
G0 Z8.175
G0 Z8.175
(Begin postamble)
M5
