(Exported by FreeCAD)
(Post Processor: marlin_post.py, version: 2020-11-03)
(Output Time:2024-06-15 21:18:30.516789)
(Begin preamble)
(Default Configuration)
G90
G21
G17
(Begin operation: Fixture)
G54
(Begin operation: TC: Default Tool)
(TC: Default Tool)
(Begin toolchange)
(M6 T1.0)
(Begin operation: Helix)
(Helix)
(helix cut operation)
G0 Z11.350
G0 Z11.350
G0 X-9.670 Y-20.000 Z11.350
G0 X-9.670 Y-20.000 Z6.350
G0 X-8.758 Y-20.000
G1 Z6.350
G2 X-10.583 Y-20.000 Z5.953 I-0.913 J0.000
G2 X-8.758 Y-20.000 Z5.556 I0.913 J0.000
G2 X-10.583 Y-20.000 Z5.159 I-0.913 J0.000
G2 X-8.758 Y-20.000 Z4.762 I0.913 J0.000
G2 X-10.583 Y-20.000 Z4.366 I-0.913 J0.000
G2 X-8.758 Y-20.000 Z3.969 I0.913 J0.000
G2 X-10.583 Y-20.000 Z3.572 I-0.913 J0.000
G2 X-8.758 Y-20.000 Z3.175 I0.913 J0.000
G2 X-10.583 Y-20.000 Z2.778 I-0.913 J0.000
G2 X-8.758 Y-20.000 Z2.381 I0.913 J0.000
G2 X-10.583 Y-20.000 Z1.984 I-0.913 J0.000
G2 X-8.758 Y-20.000 Z1.588 I0.913 J0.000
G2 X-10.583 Y-20.000 Z1.191 I-0.913 J0.000
G2 X-8.758 Y-20.000 Z0.794 I0.913 J0.000
G2 X-10.583 Y-20.000 Z0.397 I-0.913 J0.000
G2 X-8.758 Y-20.000 Z0.000 I0.913 J0.000
G2 X-10.583 Y-20.000 Z0.000 I-0.913 J0.000
G2 X-8.758 Y-20.000 Z0.000 I0.913 J0.000
G0 X-9.670 Y-20.000 Z0.000
G0 Z6.350
G0 Z11.350
G0 X14.330 Y-20.000 Z11.350
G0 X14.330 Y-20.000 Z6.350
G0 X15.242 Y-20.000
G1 Z6.350
G2 X13.417 Y-20.000 Z5.953 I-0.913 J0.000
G2 X15.242 Y-20.000 Z5.556 I0.913 J0.000
G2 X13.417 Y-20.000 Z5.159 I-0.913 J0.000
G2 X15.242 Y-20.000 Z4.762 I0.913 J0.000
G2 X13.417 Y-20.000 Z4.366 I-0.913 J0.000
G2 X15.242 Y-20.000 Z3.969 I0.913 J0.000
G2 X13.417 Y-20.000 Z3.572 I-0.913 J0.000
G2 X15.242 Y-20.000 Z3.175 I0.913 J0.000
G2 X13.417 Y-20.000 Z2.778 I-0.913 J0.000
G2 X15.242 Y-20.000 Z2.381 I0.913 J0.000
G2 X13.417 Y-20.000 Z1.984 I-0.913 J0.000
G2 X15.242 Y-20.000 Z1.588 I0.913 J0.000
G2 X13.417 Y-20.000 Z1.191 I-0.913 J0.000
G2 X15.242 Y-20.000 Z0.794 I0.913 J0.000
G2 X13.417 Y-20.000 Z0.397 I-0.913 J0.000
G2 X15.242 Y-20.000 Z0.000 I0.913 J0.000
G2 X13.417 Y-20.000 Z0.000 I-0.913 J0.000
G2 X15.242 Y-20.000 Z0.000 I0.913 J0.000
G0 X14.330 Y-20.000 Z0.000
G0 Z6.350
G0 Z11.350
G0 X20.750 Y-47.000 Z11.350
G0 X20.750 Y-47.000 Z6.350
G0 X21.913 Y-47.000
G1 Z6.350
G2 X19.587 Y-47.000 Z5.953 I-1.163 J0.000
G2 X21.913 Y-47.000 Z5.556 I1.163 J0.000
G2 X19.587 Y-47.000 Z5.159 I-1.163 J0.000
G2 X21.913 Y-47.000 Z4.762 I1.163 J0.000
G2 X19.587 Y-47.000 Z4.366 I-1.163 J0.000
G2 X21.913 Y-47.000 Z3.969 I1.163 J0.000
G2 X19.587 Y-47.000 Z3.572 I-1.163 J0.000
G2 X21.913 Y-47.000 Z3.175 I1.163 J0.000
G2 X19.587 Y-47.000 Z2.778 I-1.163 J0.000
G2 X21.913 Y-47.000 Z2.381 I1.163 J0.000
G2 X19.587 Y-47.000 Z1.984 I-1.163 J0.000
G2 X21.913 Y-47.000 Z1.588 I1.163 J0.000
G2 X19.587 Y-47.000 Z1.191 I-1.163 J0.000
G2 X21.913 Y-47.000 Z0.794 I1.163 J0.000
G2 X19.587 Y-47.000 Z0.397 I-1.163 J0.000
G2 X21.913 Y-47.000 Z0.000 I1.163 J0.000
G2 X19.587 Y-47.000 Z0.000 I-1.163 J0.000
G2 X21.913 Y-47.000 Z0.000 I1.163 J0.000
G0 X20.750 Y-47.000 Z0.000
G0 Z6.350
G0 Z11.350
G0 X20.750 Y-79.000 Z11.350
G0 X20.750 Y-79.000 Z6.350
G0 X21.913 Y-79.000
G1 Z6.350
G2 X19.587 Y-79.000 Z5.953 I-1.163 J0.000
G2 X21.913 Y-79.000 Z5.556 I1.163 J0.000
G2 X19.587 Y-79.000 Z5.159 I-1.163 J0.000
G2 X21.913 Y-79.000 Z4.762 I1.163 J0.000
G2 X19.587 Y-79.000 Z4.366 I-1.163 J0.000
G2 X21.913 Y-79.000 Z3.969 I1.163 J0.000
G2 X19.587 Y-79.000 Z3.572 I-1.163 J0.000
G2 X21.913 Y-79.000 Z3.175 I1.163 J0.000
G2 X19.587 Y-79.000 Z2.778 I-1.163 J0.000
G2 X21.913 Y-79.000 Z2.381 I1.163 J0.000
G2 X19.587 Y-79.000 Z1.984 I-1.163 J0.000
G2 X21.913 Y-79.000 Z1.588 I1.163 J0.000
G2 X19.587 Y-79.000 Z1.191 I-1.163 J0.000
G2 X21.913 Y-79.000 Z0.794 I1.163 J0.000
G2 X19.587 Y-79.000 Z0.397 I-1.163 J0.000
G2 X21.913 Y-79.000 Z0.000 I1.163 J0.000
G2 X19.587 Y-79.000 Z0.000 I-1.163 J0.000
G2 X21.913 Y-79.000 Z0.000 I1.163 J0.000
G0 X20.750 Y-79.000 Z0.000
G0 Z6.350
G0 Z11.350
G0 X56.750 Y-79.000 Z11.350
G0 X56.750 Y-79.000 Z6.350
G0 X57.913 Y-79.000
G1 Z6.350
G2 X55.587 Y-79.000 Z5.953 I-1.163 J0.000
G2 X57.913 Y-79.000 Z5.556 I1.163 J0.000
G2 X55.587 Y-79.000 Z5.159 I-1.163 J0.000
G2 X57.913 Y-79.000 Z4.762 I1.163 J0.000
G2 X55.587 Y-79.000 Z4.366 I-1.163 J0.000
G2 X57.913 Y-79.000 Z3.969 I1.163 J0.000
G2 X55.587 Y-79.000 Z3.572 I-1.163 J0.000
G2 X57.913 Y-79.000 Z3.175 I1.163 J0.000
G2 X55.587 Y-79.000 Z2.778 I-1.163 J0.000
G2 X57.913 Y-79.000 Z2.381 I1.163 J0.000
G2 X55.587 Y-79.000 Z1.984 I-1.163 J0.000
G2 X57.913 Y-79.000 Z1.588 I1.163 J0.000
G2 X55.587 Y-79.000 Z1.191 I-1.163 J0.000
G2 X57.913 Y-79.000 Z0.794 I1.163 J0.000
G2 X55.587 Y-79.000 Z0.397 I-1.163 J0.000
G2 X57.913 Y-79.000 Z0.000 I1.163 J0.000
G2 X55.587 Y-79.000 Z0.000 I-1.163 J0.000
G2 X57.913 Y-79.000 Z0.000 I1.163 J0.000
G0 X56.750 Y-79.000 Z0.000
G0 Z6.350
G0 Z11.350
G0 X56.750 Y-47.000 Z11.350
G0 X56.750 Y-47.000 Z6.350
G0 X57.913 Y-47.000
G1 Z6.350
G2 X55.587 Y-47.000 Z5.953 I-1.163 J0.000
G2 X57.913 Y-47.000 Z5.556 I1.163 J0.000
G2 X55.587 Y-47.000 Z5.159 I-1.163 J0.000
G2 X57.913 Y-47.000 Z4.762 I1.163 J0.000
G2 X55.587 Y-47.000 Z4.366 I-1.163 J0.000
G2 X57.913 Y-47.000 Z3.969 I1.163 J0.000
G2 X55.587 Y-47.000 Z3.572 I-1.163 J0.000
G2 X57.913 Y-47.000 Z3.175 I1.163 J0.000
G2 X55.587 Y-47.000 Z2.778 I-1.163 J0.000
G2 X57.913 Y-47.000 Z2.381 I1.163 J0.000
G2 X55.587 Y-47.000 Z1.984 I-1.163 J0.000
G2 X57.913 Y-47.000 Z1.588 I1.163 J0.000
G2 X55.587 Y-47.000 Z1.191 I-1.163 J0.000
G2 X57.913 Y-47.000 Z0.794 I1.163 J0.000
G2 X55.587 Y-47.000 Z0.397 I-1.163 J0.000
G2 X57.913 Y-47.000 Z0.000 I1.163 J0.000
G2 X55.587 Y-47.000 Z0.000 I-1.163 J0.000
G2 X57.913 Y-47.000 Z0.000 I1.163 J0.000
G0 X56.750 Y-47.000 Z0.000
G0 Z6.350
G0 Z11.350
G0 X-20.750 Y-47.000 Z11.350
G0 X-20.750 Y-47.000 Z6.350
G0 X-19.587 Y-47.000
G1 Z6.350
G2 X-21.913 Y-47.000 Z5.953 I-1.163 J0.000
G2 X-19.587 Y-47.000 Z5.556 I1.163 J0.000
G2 X-21.913 Y-47.000 Z5.159 I-1.163 J0.000
G2 X-19.587 Y-47.000 Z4.762 I1.163 J0.000
G2 X-21.913 Y-47.000 Z4.366 I-1.163 J0.000
G2 X-19.587 Y-47.000 Z3.969 I1.163 J0.000
G2 X-21.913 Y-47.000 Z3.572 I-1.163 J0.000
G2 X-19.587 Y-47.000 Z3.175 I1.163 J0.000
G2 X-21.913 Y-47.000 Z2.778 I-1.163 J0.000
G2 X-19.587 Y-47.000 Z2.381 I1.163 J0.000
G2 X-21.913 Y-47.000 Z1.984 I-1.163 J0.000
G2 X-19.587 Y-47.000 Z1.588 I1.163 J0.000
G2 X-21.913 Y-47.000 Z1.191 I-1.163 J0.000
G2 X-19.587 Y-47.000 Z0.794 I1.163 J0.000
G2 X-21.913 Y-47.000 Z0.397 I-1.163 J0.000
G2 X-19.587 Y-47.000 Z0.000 I1.163 J0.000
G2 X-21.913 Y-47.000 Z0.000 I-1.163 J0.000
G2 X-19.587 Y-47.000 Z0.000 I1.163 J0.000
G0 X-20.750 Y-47.000 Z0.000
G0 Z6.350
G0 Z11.350
G0 X-20.750 Y-79.000 Z11.350
G0 X-20.750 Y-79.000 Z6.350
G0 X-19.587 Y-79.000
G1 Z6.350
G2 X-21.913 Y-79.000 Z5.953 I-1.163 J0.000
G2 X-19.587 Y-79.000 Z5.556 I1.163 J0.000
G2 X-21.913 Y-79.000 Z5.159 I-1.163 J0.000
G2 X-19.587 Y-79.000 Z4.762 I1.163 J0.000
G2 X-21.913 Y-79.000 Z4.366 I-1.163 J0.000
G2 X-19.587 Y-79.000 Z3.969 I1.163 J0.000
G2 X-21.913 Y-79.000 Z3.572 I-1.163 J0.000
G2 X-19.587 Y-79.000 Z3.175 I1.163 J0.000
G2 X-21.913 Y-79.000 Z2.778 I-1.163 J0.000
G2 X-19.587 Y-79.000 Z2.381 I1.163 J0.000
G2 X-21.913 Y-79.000 Z1.984 I-1.163 J0.000
G2 X-19.587 Y-79.000 Z1.588 I1.163 J0.000
G2 X-21.913 Y-79.000 Z1.191 I-1.163 J0.000
G2 X-19.587 Y-79.000 Z0.794 I1.163 J0.000
G2 X-21.913 Y-79.000 Z0.397 I-1.163 J0.000
G2 X-19.587 Y-79.000 Z0.000 I1.163 J0.000
G2 X-21.913 Y-79.000 Z0.000 I-1.163 J0.000
G2 X-19.587 Y-79.000 Z0.000 I1.163 J0.000
G0 X-20.750 Y-79.000 Z0.000
G0 Z6.350
G0 Z11.350
G0 X-56.750 Y-79.000 Z11.350
G0 X-56.750 Y-79.000 Z6.350
G0 X-55.587 Y-79.000
G1 Z6.350
G2 X-57.913 Y-79.000 Z5.953 I-1.163 J0.000
G2 X-55.587 Y-79.000 Z5.556 I1.163 J0.000
G2 X-57.913 Y-79.000 Z5.159 I-1.163 J0.000
G2 X-55.587 Y-79.000 Z4.762 I1.163 J0.000
G2 X-57.913 Y-79.000 Z4.366 I-1.163 J0.000
G2 X-55.587 Y-79.000 Z3.969 I1.163 J0.000
G2 X-57.913 Y-79.000 Z3.572 I-1.163 J0.000
G2 X-55.587 Y-79.000 Z3.175 I1.163 J0.000
G2 X-57.913 Y-79.000 Z2.778 I-1.163 J0.000
G2 X-55.587 Y-79.000 Z2.381 I1.163 J0.000
G2 X-57.913 Y-79.000 Z1.984 I-1.163 J0.000
G2 X-55.587 Y-79.000 Z1.588 I1.163 J0.000
G2 X-57.913 Y-79.000 Z1.191 I-1.163 J0.000
G2 X-55.587 Y-79.000 Z0.794 I1.163 J0.000
G2 X-57.913 Y-79.000 Z0.397 I-1.163 J0.000
G2 X-55.587 Y-79.000 Z0.000 I1.163 J0.000
G2 X-57.913 Y-79.000 Z0.000 I-1.163 J0.000
G2 X-55.587 Y-79.000 Z0.000 I1.163 J0.000
G0 X-56.750 Y-79.000 Z0.000
G0 Z6.350
G0 Z11.350
G0 X-56.750 Y-47.000 Z11.350
G0 X-56.750 Y-47.000 Z6.350
G0 X-55.587 Y-47.000
G1 Z6.350
G2 X-57.913 Y-47.000 Z5.953 I-1.163 J0.000
G2 X-55.587 Y-47.000 Z5.556 I1.163 J0.000
G2 X-57.913 Y-47.000 Z5.159 I-1.163 J0.000
G2 X-55.587 Y-47.000 Z4.762 I1.163 J0.000
G2 X-57.913 Y-47.000 Z4.366 I-1.163 J0.000
G2 X-55.587 Y-47.000 Z3.969 I1.163 J0.000
G2 X-57.913 Y-47.000 Z3.572 I-1.163 J0.000
G2 X-55.587 Y-47.000 Z3.175 I1.163 J0.000
G2 X-57.913 Y-47.000 Z2.778 I-1.163 J0.000
G2 X-55.587 Y-47.000 Z2.381 I1.163 J0.000
G2 X-57.913 Y-47.000 Z1.984 I-1.163 J0.000
G2 X-55.587 Y-47.000 Z1.588 I1.163 J0.000
G2 X-57.913 Y-47.000 Z1.191 I-1.163 J0.000
G2 X-55.587 Y-47.000 Z0.794 I1.163 J0.000
G2 X-57.913 Y-47.000 Z0.397 I-1.163 J0.000
G2 X-55.587 Y-47.000 Z0.000 I1.163 J0.000
G2 X-57.913 Y-47.000 Z0.000 I-1.163 J0.000
G2 X-55.587 Y-47.000 Z0.000 I1.163 J0.000
G0 X-56.750 Y-47.000 Z0.000
G0 Z6.350
G0 Z11.350
G0 X-9.670 Y20.000 Z11.350
G0 X-9.670 Y20.000 Z6.350
G0 X-8.758 Y20.000
G1 Z6.350
G2 X-10.583 Y20.000 Z5.953 I-0.913 J0.000
G2 X-8.758 Y20.000 Z5.556 I0.913 J0.000
G2 X-10.583 Y20.000 Z5.159 I-0.913 J0.000
G2 X-8.758 Y20.000 Z4.762 I0.913 J0.000
G2 X-10.583 Y20.000 Z4.366 I-0.913 J0.000
G2 X-8.758 Y20.000 Z3.969 I0.913 J0.000
G2 X-10.583 Y20.000 Z3.572 I-0.913 J0.000
G2 X-8.758 Y20.000 Z3.175 I0.913 J0.000
G2 X-10.583 Y20.000 Z2.778 I-0.913 J0.000
G2 X-8.758 Y20.000 Z2.381 I0.913 J0.000
G2 X-10.583 Y20.000 Z1.984 I-0.913 J0.000
G2 X-8.758 Y20.000 Z1.588 I0.913 J0.000
G2 X-10.583 Y20.000 Z1.191 I-0.913 J0.000
G2 X-8.758 Y20.000 Z0.794 I0.913 J0.000
G2 X-10.583 Y20.000 Z0.397 I-0.913 J0.000
G2 X-8.758 Y20.000 Z0.000 I0.913 J0.000
G2 X-10.583 Y20.000 Z0.000 I-0.913 J0.000
G2 X-8.758 Y20.000 Z0.000 I0.913 J0.000
G0 X-9.670 Y20.000 Z0.000
G0 Z6.350
G0 Z11.350
G0 X14.330 Y20.000 Z11.350
G0 X14.330 Y20.000 Z6.350
G0 X15.242 Y20.000
G1 Z6.350
G2 X13.417 Y20.000 Z5.953 I-0.913 J0.000
G2 X15.242 Y20.000 Z5.556 I0.913 J0.000
G2 X13.417 Y20.000 Z5.159 I-0.913 J0.000
G2 X15.242 Y20.000 Z4.762 I0.913 J0.000
G2 X13.417 Y20.000 Z4.366 I-0.913 J0.000
G2 X15.242 Y20.000 Z3.969 I0.913 J0.000
G2 X13.417 Y20.000 Z3.572 I-0.913 J0.000
G2 X15.242 Y20.000 Z3.175 I0.913 J0.000
G2 X13.417 Y20.000 Z2.778 I-0.913 J0.000
G2 X15.242 Y20.000 Z2.381 I0.913 J0.000
G2 X13.417 Y20.000 Z1.984 I-0.913 J0.000
G2 X15.242 Y20.000 Z1.588 I0.913 J0.000
G2 X13.417 Y20.000 Z1.191 I-0.913 J0.000
G2 X15.242 Y20.000 Z0.794 I0.913 J0.000
G2 X13.417 Y20.000 Z0.397 I-0.913 J0.000
G2 X15.242 Y20.000 Z0.000 I0.913 J0.000
G2 X13.417 Y20.000 Z0.000 I-0.913 J0.000
G2 X15.242 Y20.000 Z0.000 I0.913 J0.000
G0 X14.330 Y20.000 Z0.000
G0 Z6.350
G0 Z11.350
G0 X20.750 Y47.000 Z11.350
G0 X20.750 Y47.000 Z6.350
G0 X21.913 Y47.000
G1 Z6.350
G2 X19.587 Y47.000 Z5.953 I-1.163 J0.000
G2 X21.913 Y47.000 Z5.556 I1.163 J0.000
G2 X19.587 Y47.000 Z5.159 I-1.163 J0.000
G2 X21.913 Y47.000 Z4.762 I1.163 J0.000
G2 X19.587 Y47.000 Z4.366 I-1.163 J0.000
G2 X21.913 Y47.000 Z3.969 I1.163 J0.000
G2 X19.587 Y47.000 Z3.572 I-1.163 J0.000
G2 X21.913 Y47.000 Z3.175 I1.163 J0.000
G2 X19.587 Y47.000 Z2.778 I-1.163 J0.000
G2 X21.913 Y47.000 Z2.381 I1.163 J0.000
G2 X19.587 Y47.000 Z1.984 I-1.163 J0.000
G2 X21.913 Y47.000 Z1.588 I1.163 J0.000
G2 X19.587 Y47.000 Z1.191 I-1.163 J0.000
G2 X21.913 Y47.000 Z0.794 I1.163 J0.000
G2 X19.587 Y47.000 Z0.397 I-1.163 J0.000
G2 X21.913 Y47.000 Z0.000 I1.163 J0.000
G2 X19.587 Y47.000 Z0.000 I-1.163 J0.000
G2 X21.913 Y47.000 Z0.000 I1.163 J0.000
G0 X20.750 Y47.000 Z0.000
G0 Z6.350
G0 Z11.350
G0 X20.750 Y79.000 Z11.350
G0 X20.750 Y79.000 Z6.350
G0 X21.913 Y79.000
G1 Z6.350
G2 X19.587 Y79.000 Z5.953 I-1.163 J0.000
G2 X21.913 Y79.000 Z5.556 I1.163 J0.000
G2 X19.587 Y79.000 Z5.159 I-1.163 J0.000
G2 X21.913 Y79.000 Z4.762 I1.163 J0.000
G2 X19.587 Y79.000 Z4.366 I-1.163 J0.000
G2 X21.913 Y79.000 Z3.969 I1.163 J0.000
G2 X19.587 Y79.000 Z3.572 I-1.163 J0.000
G2 X21.913 Y79.000 Z3.175 I1.163 J0.000
G2 X19.587 Y79.000 Z2.778 I-1.163 J0.000
G2 X21.913 Y79.000 Z2.381 I1.163 J0.000
G2 X19.587 Y79.000 Z1.984 I-1.163 J0.000
G2 X21.913 Y79.000 Z1.588 I1.163 J0.000
G2 X19.587 Y79.000 Z1.191 I-1.163 J0.000
G2 X21.913 Y79.000 Z0.794 I1.163 J0.000
G2 X19.587 Y79.000 Z0.397 I-1.163 J0.000
G2 X21.913 Y79.000 Z0.000 I1.163 J0.000
G2 X19.587 Y79.000 Z0.000 I-1.163 J0.000
G2 X21.913 Y79.000 Z0.000 I1.163 J0.000
G0 X20.750 Y79.000 Z0.000
G0 Z6.350
G0 Z11.350
G0 X56.750 Y79.000 Z11.350
G0 X56.750 Y79.000 Z6.350
G0 X57.913 Y79.000
G1 Z6.350
G2 X55.587 Y79.000 Z5.953 I-1.163 J0.000
G2 X57.913 Y79.000 Z5.556 I1.163 J0.000
G2 X55.587 Y79.000 Z5.159 I-1.163 J0.000
G2 X57.913 Y79.000 Z4.762 I1.163 J0.000
G2 X55.587 Y79.000 Z4.366 I-1.163 J0.000
G2 X57.913 Y79.000 Z3.969 I1.163 J0.000
G2 X55.587 Y79.000 Z3.572 I-1.163 J0.000
G2 X57.913 Y79.000 Z3.175 I1.163 J0.000
G2 X55.587 Y79.000 Z2.778 I-1.163 J0.000
G2 X57.913 Y79.000 Z2.381 I1.163 J0.000
G2 X55.587 Y79.000 Z1.984 I-1.163 J0.000
G2 X57.913 Y79.000 Z1.588 I1.163 J0.000
G2 X55.587 Y79.000 Z1.191 I-1.163 J0.000
G2 X57.913 Y79.000 Z0.794 I1.163 J0.000
G2 X55.587 Y79.000 Z0.397 I-1.163 J0.000
G2 X57.913 Y79.000 Z0.000 I1.163 J0.000
G2 X55.587 Y79.000 Z0.000 I-1.163 J0.000
G2 X57.913 Y79.000 Z0.000 I1.163 J0.000
G0 X56.750 Y79.000 Z0.000
G0 Z6.350
G0 Z11.350
G0 X56.750 Y47.000 Z11.350
G0 X56.750 Y47.000 Z6.350
G0 X57.913 Y47.000
G1 Z6.350
G2 X55.587 Y47.000 Z5.953 I-1.163 J0.000
G2 X57.913 Y47.000 Z5.556 I1.163 J0.000
G2 X55.587 Y47.000 Z5.159 I-1.163 J0.000
G2 X57.913 Y47.000 Z4.762 I1.163 J0.000
G2 X55.587 Y47.000 Z4.366 I-1.163 J0.000
G2 X57.913 Y47.000 Z3.969 I1.163 J0.000
G2 X55.587 Y47.000 Z3.572 I-1.163 J0.000
G2 X57.913 Y47.000 Z3.175 I1.163 J0.000
G2 X55.587 Y47.000 Z2.778 I-1.163 J0.000
G2 X57.913 Y47.000 Z2.381 I1.163 J0.000
G2 X55.587 Y47.000 Z1.984 I-1.163 J0.000
G2 X57.913 Y47.000 Z1.588 I1.163 J0.000
G2 X55.587 Y47.000 Z1.191 I-1.163 J0.000
G2 X57.913 Y47.000 Z0.794 I1.163 J0.000
G2 X55.587 Y47.000 Z0.397 I-1.163 J0.000
G2 X57.913 Y47.000 Z0.000 I1.163 J0.000
G2 X55.587 Y47.000 Z0.000 I-1.163 J0.000
G2 X57.913 Y47.000 Z0.000 I1.163 J0.000
G0 X56.750 Y47.000 Z0.000
G0 Z6.350
G0 Z11.350
G0 X-20.750 Y47.000 Z11.350
G0 X-20.750 Y47.000 Z6.350
G0 X-19.587 Y47.000
G1 Z6.350
G2 X-21.913 Y47.000 Z5.953 I-1.163 J0.000
G2 X-19.587 Y47.000 Z5.556 I1.163 J0.000
G2 X-21.913 Y47.000 Z5.159 I-1.163 J0.000
G2 X-19.587 Y47.000 Z4.762 I1.163 J0.000
G2 X-21.913 Y47.000 Z4.366 I-1.163 J0.000
G2 X-19.587 Y47.000 Z3.969 I1.163 J0.000
G2 X-21.913 Y47.000 Z3.572 I-1.163 J0.000
G2 X-19.587 Y47.000 Z3.175 I1.163 J0.000
G2 X-21.913 Y47.000 Z2.778 I-1.163 J0.000
G2 X-19.587 Y47.000 Z2.381 I1.163 J0.000
G2 X-21.913 Y47.000 Z1.984 I-1.163 J0.000
G2 X-19.587 Y47.000 Z1.588 I1.163 J0.000
G2 X-21.913 Y47.000 Z1.191 I-1.163 J0.000
G2 X-19.587 Y47.000 Z0.794 I1.163 J0.000
G2 X-21.913 Y47.000 Z0.397 I-1.163 J0.000
G2 X-19.587 Y47.000 Z0.000 I1.163 J0.000
G2 X-21.913 Y47.000 Z0.000 I-1.163 J0.000
G2 X-19.587 Y47.000 Z0.000 I1.163 J0.000
G0 X-20.750 Y47.000 Z0.000
G0 Z6.350
G0 Z11.350
G0 X-20.750 Y79.000 Z11.350
G0 X-20.750 Y79.000 Z6.350
G0 X-19.587 Y79.000
G1 Z6.350
G2 X-21.913 Y79.000 Z5.953 I-1.163 J0.000
G2 X-19.587 Y79.000 Z5.556 I1.163 J0.000
G2 X-21.913 Y79.000 Z5.159 I-1.163 J0.000
G2 X-19.587 Y79.000 Z4.762 I1.163 J0.000
G2 X-21.913 Y79.000 Z4.366 I-1.163 J0.000
G2 X-19.587 Y79.000 Z3.969 I1.163 J0.000
G2 X-21.913 Y79.000 Z3.572 I-1.163 J0.000
G2 X-19.587 Y79.000 Z3.175 I1.163 J0.000
G2 X-21.913 Y79.000 Z2.778 I-1.163 J0.000
G2 X-19.587 Y79.000 Z2.381 I1.163 J0.000
G2 X-21.913 Y79.000 Z1.984 I-1.163 J0.000
G2 X-19.587 Y79.000 Z1.588 I1.163 J0.000
G2 X-21.913 Y79.000 Z1.191 I-1.163 J0.000
G2 X-19.587 Y79.000 Z0.794 I1.163 J0.000
G2 X-21.913 Y79.000 Z0.397 I-1.163 J0.000
G2 X-19.587 Y79.000 Z0.000 I1.163 J0.000
G2 X-21.913 Y79.000 Z0.000 I-1.163 J0.000
G2 X-19.587 Y79.000 Z0.000 I1.163 J0.000
G0 X-20.750 Y79.000 Z0.000
G0 Z6.350
G0 Z11.350
G0 X-56.750 Y79.000 Z11.350
G0 X-56.750 Y79.000 Z6.350
G0 X-55.587 Y79.000
G1 Z6.350
G2 X-57.913 Y79.000 Z5.953 I-1.163 J0.000
G2 X-55.587 Y79.000 Z5.556 I1.163 J0.000
G2 X-57.913 Y79.000 Z5.159 I-1.163 J0.000
G2 X-55.587 Y79.000 Z4.762 I1.163 J0.000
G2 X-57.913 Y79.000 Z4.366 I-1.163 J0.000
G2 X-55.587 Y79.000 Z3.969 I1.163 J0.000
G2 X-57.913 Y79.000 Z3.572 I-1.163 J0.000
G2 X-55.587 Y79.000 Z3.175 I1.163 J0.000
G2 X-57.913 Y79.000 Z2.778 I-1.163 J0.000
G2 X-55.587 Y79.000 Z2.381 I1.163 J0.000
G2 X-57.913 Y79.000 Z1.984 I-1.163 J0.000
G2 X-55.587 Y79.000 Z1.588 I1.163 J0.000
G2 X-57.913 Y79.000 Z1.191 I-1.163 J0.000
G2 X-55.587 Y79.000 Z0.794 I1.163 J0.000
G2 X-57.913 Y79.000 Z0.397 I-1.163 J0.000
G2 X-55.587 Y79.000 Z0.000 I1.163 J0.000
G2 X-57.913 Y79.000 Z0.000 I-1.163 J0.000
G2 X-55.587 Y79.000 Z0.000 I1.163 J0.000
G0 X-56.750 Y79.000 Z0.000
G0 Z6.350
G0 Z11.350
G0 X-56.750 Y47.000 Z11.350
G0 X-56.750 Y47.000 Z6.350
G0 X-55.587 Y47.000
G1 Z6.350
G2 X-57.913 Y47.000 Z5.953 I-1.163 J0.000
G2 X-55.587 Y47.000 Z5.556 I1.163 J0.000
G2 X-57.913 Y47.000 Z5.159 I-1.163 J0.000
G2 X-55.587 Y47.000 Z4.762 I1.163 J0.000
G2 X-57.913 Y47.000 Z4.366 I-1.163 J0.000
G2 X-55.587 Y47.000 Z3.969 I1.163 J0.000
G2 X-57.913 Y47.000 Z3.572 I-1.163 J0.000
G2 X-55.587 Y47.000 Z3.175 I1.163 J0.000
G2 X-57.913 Y47.000 Z2.778 I-1.163 J0.000
G2 X-55.587 Y47.000 Z2.381 I1.163 J0.000
G2 X-57.913 Y47.000 Z1.984 I-1.163 J0.000
G2 X-55.587 Y47.000 Z1.588 I1.163 J0.000
G2 X-57.913 Y47.000 Z1.191 I-1.163 J0.000
G2 X-55.587 Y47.000 Z0.794 I1.163 J0.000
G2 X-57.913 Y47.000 Z0.397 I-1.163 J0.000
G2 X-55.587 Y47.000 Z0.000 I1.163 J0.000
G2 X-57.913 Y47.000 Z0.000 I-1.163 J0.000
G2 X-55.587 Y47.000 Z0.000 I1.163 J0.000
G0 X-56.750 Y47.000 Z0.000
G0 Z6.350
G0 Z11.350
(Begin operation: Profile)
(Profile)
(Compensated Tool Path. Diameter: 3.175)
G0 Z11.350
G0 X78.623 Y86.123
G0 Z9.350
G1 X78.623 Y86.123 Z5.556
G2 X79.088 Y85.000 Z5.556 I-1.123 J-1.123 K0.000
G1 X79.088 Y-85.000 Z5.556
G2 X77.500 Y-86.588 Z5.556 I-1.587 J-0.000 K0.000
G1 X-77.500 Y-86.588 Z5.556
G2 X-79.088 Y-85.000 Z5.556 I-0.000 J1.587 K0.000
G1 X-79.088 Y85.000 Z5.556
G2 X-77.500 Y86.588 Z5.556 I1.587 J0.000 K0.000
G1 X77.500 Y86.588 Z5.556
G2 X78.623 Y86.123 Z5.556 I0.000 J-1.587 K0.000
G1 X78.623 Y86.123 Z4.762
G2 X79.088 Y85.000 Z4.762 I-1.123 J-1.123 K0.000
G1 X79.088 Y-85.000 Z4.762
G2 X77.500 Y-86.588 Z4.762 I-1.587 J-0.000 K0.000
G1 X-77.500 Y-86.588 Z4.762
G2 X-79.088 Y-85.000 Z4.762 I-0.000 J1.587 K0.000
G1 X-79.088 Y85.000 Z4.762
G2 X-77.500 Y86.588 Z4.762 I1.587 J0.000 K0.000
G1 X77.500 Y86.588 Z4.762
G2 X78.623 Y86.123 Z4.762 I0.000 J-1.587 K0.000
G1 X78.623 Y86.123 Z3.969
G2 X79.088 Y85.000 Z3.969 I-1.123 J-1.123 K0.000
G1 X79.088 Y-85.000 Z3.969
G2 X77.500 Y-86.588 Z3.969 I-1.587 J-0.000 K0.000
G1 X-77.500 Y-86.588 Z3.969
G2 X-79.088 Y-85.000 Z3.969 I-0.000 J1.587 K0.000
G1 X-79.088 Y85.000 Z3.969
G2 X-77.500 Y86.588 Z3.969 I1.587 J0.000 K0.000
G1 X77.500 Y86.588 Z3.969
G2 X78.623 Y86.123 Z3.969 I0.000 J-1.587 K0.000
G1 X78.623 Y86.123 Z3.175
G2 X79.088 Y85.000 Z3.175 I-1.123 J-1.123 K0.000
G1 X79.088 Y-85.000 Z3.175
G2 X77.500 Y-86.588 Z3.175 I-1.587 J-0.000 K0.000
G1 X-77.500 Y-86.588 Z3.175
G2 X-79.088 Y-85.000 Z3.175 I-0.000 J1.587 K0.000
G1 X-79.088 Y85.000 Z3.175
G2 X-77.500 Y86.588 Z3.175 I1.587 J0.000 K0.000
G1 X77.500 Y86.588 Z3.175
G2 X78.623 Y86.123 Z3.175 I0.000 J-1.587 K0.000
G1 X78.623 Y86.123 Z2.381
G2 X79.088 Y85.000 Z2.381 I-1.123 J-1.123 K0.000
G1 X79.088 Y-85.000 Z2.381
G2 X77.500 Y-86.588 Z2.381 I-1.587 J-0.000 K0.000
G1 X-77.500 Y-86.588 Z2.381
G2 X-79.088 Y-85.000 Z2.381 I-0.000 J1.587 K0.000
G1 X-79.088 Y85.000 Z2.381
G2 X-77.500 Y86.588 Z2.381 I1.587 J0.000 K0.000
G1 X77.500 Y86.588 Z2.381
G2 X78.623 Y86.123 Z2.381 I0.000 J-1.587 K0.000
G1 X78.623 Y86.123 Z1.587
G2 X79.088 Y85.000 Z1.587 I-1.123 J-1.123 K0.000
G1 X79.088 Y-85.000 Z1.587
G2 X77.500 Y-86.588 Z1.587 I-1.587 J-0.000 K0.000
G1 X-77.500 Y-86.588 Z1.587
G2 X-79.088 Y-85.000 Z1.587 I-0.000 J1.587 K0.000
G1 X-79.088 Y85.000 Z1.587
G2 X-77.500 Y86.588 Z1.587 I1.587 J0.000 K0.000
G1 X77.500 Y86.588 Z1.587
G2 X78.623 Y86.123 Z1.587 I0.000 J-1.587 K0.000
G1 X78.623 Y86.123 Z0.794
G2 X79.088 Y85.000 Z0.794 I-1.123 J-1.123 K0.000
G1 X79.088 Y-85.000 Z0.794
G2 X77.500 Y-86.588 Z0.794 I-1.587 J-0.000 K0.000
G1 X-77.500 Y-86.588 Z0.794
G2 X-79.088 Y-85.000 Z0.794 I-0.000 J1.587 K0.000
G1 X-79.088 Y85.000 Z0.794
G2 X-77.500 Y86.588 Z0.794 I1.587 J0.000 K0.000
G1 X77.500 Y86.588 Z0.794
G2 X78.623 Y86.123 Z0.794 I0.000 J-1.587 K0.000
G1 X78.623 Y86.123 Z0.000
G2 X79.088 Y85.000 Z0.000 I-1.123 J-1.123 K0.000
G1 X79.088 Y-85.000 Z0.000
G2 X77.500 Y-86.588 Z0.000 I-1.587 J-0.000 K0.000
G1 X-77.500 Y-86.588 Z0.000
G2 X-79.088 Y-85.000 Z0.000 I-0.000 J1.587 K0.000
G1 X-79.088 Y85.000 Z0.000
G2 X-77.500 Y86.588 Z0.000 I1.587 J0.000 K0.000
G1 X77.500 Y86.588 Z0.000
G2 X78.623 Y86.123 Z0.000 I0.000 J-1.587 K0.000
G0 Z11.350
G0 Z11.350
(Begin postamble)
M5
